;FLAVOR:Marlin
;TIME:6436
;Filament used: 3.9448m
;Layer height: 0.2
;MINX:10.03
;MINY:83.754
;MINZ:0.2
;MAXX:163.813
;MAXY:150.71
;MAXZ:8.4
;Generated with Cura_SteamEngine 5.2.1
M140 S50
M105
M190 S50
M104 S200
M105
M109 S200
M82 ;absolute extrusion mode
; Ender 3 Custom Start G-code
G92 E0 ; Reset Extruder
G28 ; Home all axes
G1 Z2.0 F3000 ; Move Z Axis up little to prevent scratching of Heat Bed
G1 X0.1 Y20 Z0.3 F5000.0 ; Move to start position
G1 X0.1 Y200.0 Z0.3 F1500.0 E15 ; Draw the first line
G1 X0.4 Y200.0 Z0.3 F5000.0 ; Move to side a little
G1 X0.4 Y20 Z0.3 F1500.0 E30 ; Draw the second line
G92 E0 ; Reset Extruder
G1 Z2.0 F3000 ; Move Z Axis up little to prevent scratching of Heat Bed
G1 X5 Y20 Z0.3 F5000.0 ; Move over to prevent blob squish
G92 E0
G92 E0
G1 F2700 E-5
;LAYER_COUNT:42
;LAYER:0
M107
G0 F6000 X28.159 Y89.843 Z0.2
;TYPE:SKIRT
G1 F2700 E0
G1 F1200 X29.16 Y89.546 E0.03473
G1 X30.222 Y89.258 E0.07133
G1 X31.257 Y89.005 E0.10676
G1 X32.195 Y88.8 E0.1387
G1 X33.246 Y88.599 E0.17429
G1 X33.6 Y88.539 E0.18623
G1 X34.638 Y88.384 E0.22114
G1 X35.642 Y88.266 E0.25476
G1 X36.321 Y88.205 E0.27743
G1 X37.145 Y88.151 E0.3049
G1 X38.604 Y88.106 E0.35345
G1 X40.305 Y88.109 E0.41002
G1 X41.316 Y88.134 E0.44366
G1 X43.085 Y88.209 E0.50255
G1 X44.361 Y88.292 E0.54508
G1 X45.305 Y88.375 E0.5766
G1 X46.112 Y88.464 E0.6036
G1 X46.848 Y88.566 E0.62832
G1 X49.453 Y88.903 E0.71568
G1 X51.946 Y89.154 E0.79902
G1 X54.457 Y89.336 E0.88275
G1 X56.943 Y89.445 E0.96552
G1 X59.503 Y89.485 E1.05067
G1 X61.991 Y89.453 E1.13343
G1 X64.512 Y89.35 E1.21735
G1 X67.04 Y89.174 E1.30164
G1 X69.544 Y88.929 E1.38532
G1 X72.019 Y88.616 E1.46829
G1 X74.521 Y88.228 E1.5525
G1 X77 Y87.771 E1.63634
G1 X79.424 Y87.252 E1.71879
G1 X81.923 Y86.644 E1.80434
G1 X84.325 Y85.986 E1.88717
G1 X86.065 Y85.455 E1.94768
G1 X86.193 Y85.422 E1.95207
G1 X87.376 Y85.058 E1.99324
G1 X88.284 Y84.821 E2.02445
G1 X88.964 Y84.696 E2.04745
G1 X89.367 Y84.635 E2.06101
G1 X90.299 Y84.534 E2.09219
G1 X91.298 Y84.515 E2.12542
G1 X92.746 Y84.554 E2.1736
G1 X93.364 Y84.582 E2.19417
G1 X95.865 Y84.626 E2.27737
G1 X98.353 Y84.6 E2.36012
G1 X100.911 Y84.5 E2.44527
G1 X103.405 Y84.332 E2.52841
G1 X105.887 Y84.095 E2.61133
G1 X106.585 Y84.006 E2.63474
G1 X108.159 Y83.827 E2.68743
G1 X109.264 Y83.758 E2.72425
G1 X109.598 Y83.754 E2.73536
G1 X110.536 Y83.783 E2.76657
G1 X111.343 Y83.868 E2.79356
G1 X111.888 Y83.949 E2.81189
G1 X114.299 Y84.367 E2.89328
G1 X116.802 Y84.732 E2.97741
G1 X119.296 Y85.023 E3.06092
G1 X121.833 Y85.246 E3.14563
G1 X124.3 Y85.394 E3.22783
G1 X126.809 Y85.472 E3.31132
G1 X129.741 Y85.463 E3.40884
G1 X131.24 Y85.477 E3.45869
G1 X132.577 Y85.572 E3.50328
G1 X133.289 Y85.666 E3.52716
G1 X133.813 Y85.748 E3.5448
G1 X134.276 Y85.832 E3.56045
G1 X134.823 Y85.945 E3.57903
G1 X135.369 Y86.073 E3.59768
G1 X135.859 Y86.2 E3.61452
G1 X136.462 Y86.371 E3.63537
G1 X136.915 Y86.51 E3.65113
G1 X137.55 Y86.72 E3.67337
G1 X138.03 Y86.892 E3.69033
G1 X138.594 Y87.108 E3.71042
G1 X139.092 Y87.312 E3.72832
G1 X139.56 Y87.518 E3.74532
G1 X140.477 Y87.959 E3.77917
G1 X140.974 Y88.219 E3.79782
G1 X141.493 Y88.508 E3.81758
G1 X142.097 Y88.87 E3.841
G1 X142.833 Y89.344 E3.87012
G1 X143.375 Y89.717 E3.892
G1 X144.048 Y90.227 E3.92009
G1 X144.42 Y90.53 E3.93604
G1 X144.776 Y90.833 E3.95159
G1 X145.287 Y91.297 E3.97455
G1 X145.581 Y91.578 E3.98808
G1 X146.032 Y92.035 E4.00943
G1 X146.461 Y92.501 E4.0305
G1 X146.759 Y92.839 E4.04549
G1 X147.261 Y93.452 E4.07184
G1 X147.64 Y93.95 E4.09265
G1 X148.063 Y94.541 E4.11683
G1 X148.342 Y94.961 E4.1336
G1 X148.76 Y95.624 E4.15967
G1 X150.167 Y97.79 E4.24557
G1 X151.599 Y99.863 E4.32937
G1 X153.083 Y101.888 E4.41287
G1 X154.641 Y103.892 E4.4973
G1 X156.365 Y105.982 E4.58741
G1 X156.642 Y106.332 E4.60226
G1 X157.073 Y106.9 E4.62597
G1 X157.965 Y108.109 E4.67594
G1 X160.295 Y111.06 E4.801
G1 X160.844 Y111.82 E4.83218
G1 X161.251 Y112.487 E4.85817
G1 X161.441 Y112.825 E4.87107
G1 X161.865 Y113.661 E4.90225
G1 X162.247 Y114.617 E4.93649
G1 X162.391 Y115.033 E4.95113
G1 X162.66 Y115.931 E4.98231
G1 X162.869 Y116.965 E5.01739
G1 X162.928 Y117.35 E5.03035
G1 X163.03 Y118.282 E5.06153
G1 X163.051 Y119.301 E5.09543
G1 X163.017 Y120.611 E5.13902
G1 X162.98 Y121.493 E5.16838
G1 X162.94 Y124.046 E5.2533
G1 X162.972 Y126.537 E5.33616
G1 X163.076 Y129.066 E5.42034
G1 X163.25 Y131.581 E5.50419
G1 X163.495 Y134.096 E5.58824
G1 X163.67 Y135.522 E5.63602
G1 X163.744 Y136.192 E5.65844
G1 X163.809 Y137.258 E5.69396
G1 X163.813 Y137.567 E5.70424
G1 X163.746 Y138.985 E5.75146
G1 X163.585 Y140.053 E5.78738
G1 X163.452 Y140.65 E5.80772
G1 X163.371 Y140.97 E5.8187
G1 X163.102 Y141.869 E5.84991
G1 X162.75 Y142.758 E5.88172
G1 X162.645 Y142.993 E5.89028
G1 X162.226 Y143.833 E5.9215
G1 X161.778 Y144.572 E5.95024
G1 X161.62 Y144.811 E5.95977
G1 X161.07 Y145.571 E5.99097
G1 X160.454 Y146.292 E6.02251
G1 X159.718 Y147.023 E6.05702
G1 X159.325 Y147.366 E6.07437
G1 X158.984 Y147.649 E6.0891
G1 X158.237 Y148.216 E6.1203
G1 X157.445 Y148.718 E6.15148
G1 X156.584 Y149.165 E6.18375
G1 X156.202 Y149.342 E6.19775
G1 X155.232 Y149.736 E6.23258
G1 X154.792 Y149.891 E6.24809
G1 X153.553 Y150.247 E6.29097
G1 X153.091 Y150.351 E6.30672
G1 X151.958 Y150.545 E6.34495
G1 X151.277 Y150.625 E6.36776
G1 X150.341 Y150.695 E6.39898
G1 X149.929 Y150.708 E6.41269
G1 X149.31 Y150.71 E6.43327
G1 X148.422 Y150.688 E6.46282
G1 X147.554 Y150.641 E6.49173
G1 X147.119 Y150.604 E6.50625
G1 X146.426 Y150.532 E6.52942
G1 X145.836 Y150.455 E6.54921
G1 X144.628 Y150.263 E6.5899
G1 X143.516 Y150.052 E6.62754
G1 X143.035 Y149.947 E6.64392
G1 X140.659 Y149.372 E6.72522
G1 X138.122 Y148.805 E6.81169
G1 X135.678 Y148.332 E6.89448
G1 X133.194 Y147.924 E6.97821
G1 X130.718 Y147.588 E7.06131
G1 X128.166 Y147.315 E7.14668
G1 X125.689 Y147.121 E7.22932
G1 X123.108 Y146.991 E7.31527
G1 X121.633 Y146.93 E7.36437
G1 X120.3 Y146.793 E7.40894
G1 X119.954 Y146.736 E7.4206
G1 X118.805 Y146.483 E7.45973
G1 X117.775 Y146.196 E7.4953
G1 X116.496 Y145.819 E7.53965
G1 X114.056 Y145.176 E7.62357
G1 X111.586 Y144.599 E7.70794
G1 X109.128 Y144.097 E7.79138
G1 X106.658 Y143.665 E7.87478
G1 X104.152 Y143.3 E7.95901
G1 X101.673 Y143.01 E8.04202
G1 X99.165 Y142.788 E8.12576
G1 X96.672 Y142.638 E8.20883
G1 X92.991 Y142.544 E8.3313
G1 X92.181 Y142.536 E8.35824
G1 X91.336 Y142.512 E8.38636
G1 X89.993 Y142.458 E8.43106
G1 X88.624 Y142.376 E8.47668
G1 X87.281 Y142.259 E8.52151
G1 X86.341 Y142.148 E8.553
G1 X83.381 Y141.758 E8.6523
G1 X80.899 Y141.505 E8.73528
G1 X78.4 Y141.32 E8.81862
G1 X75.856 Y141.206 E8.90332
G1 X73.363 Y141.164 E8.98625
G1 X70.837 Y141.193 E9.07027
G1 X68.328 Y141.293 E9.15379
G1 X65.828 Y141.464 E9.23713
G1 X63.313 Y141.707 E9.32117
G1 X60.816 Y142.019 E9.40487
G1 X58.322 Y142.403 E9.48879
G1 X55.853 Y142.856 E9.57228
G1 X53.38 Y143.382 E9.65638
G1 X50.946 Y143.97 E9.73966
G1 X48.536 Y144.628 E9.82275
G1 X46.652 Y145.206 E9.8883
G1 X46.379 Y145.277 E9.89768
G1 X45.395 Y145.582 E9.93194
G1 X44.488 Y145.821 E9.96314
G1 X43.799 Y145.949 E9.98645
G1 X43.392 Y146.011 E10.00014
G1 X42.459 Y146.112 E10.03135
G1 X41.427 Y146.132 E10.06568
G1 X38.085 Y146.039 E10.17688
G1 X35.544 Y146.03 E10.2614
G1 X33.051 Y146.094 E10.34434
G1 X30.531 Y146.229 E10.42828
G1 X28.024 Y146.434 E10.51194
G1 X25.422 Y146.722 E10.59901
G1 X24.687 Y146.811 E10.62363
G1 X23.629 Y146.888 E10.65892
G1 X23.379 Y146.894 E10.66723
G1 X22.092 Y146.849 E10.71007
G1 X21.76 Y146.818 E10.72116
G1 X20.831 Y146.691 E10.75234
G1 X20.123 Y146.539 E10.77643
G1 X19.798 Y146.458 E10.78757
G1 X18.898 Y146.193 E10.81877
G1 X17.951 Y145.819 E10.85264
G1 X17.715 Y145.713 E10.86124
G1 X16.877 Y145.293 E10.89242
G1 X16.111 Y144.825 E10.92228
G1 X15.879 Y144.67 E10.93156
G1 X15.122 Y144.117 E10.96274
G1 X14.419 Y143.511 E10.99361
G1 X13.686 Y142.771 E11.02825
G1 X13.156 Y142.149 E11.05543
G1 X12.588 Y141.403 E11.08661
G1 X12.167 Y140.75 E11.11246
G1 X12.02 Y140.503 E11.12202
G1 X11.439 Y139.384 E11.16395
G1 X11.302 Y139.079 E11.17507
G1 X10.875 Y137.973 E11.2145
G1 X10.769 Y137.647 E11.22591
G1 X10.496 Y136.649 E11.26032
G1 X10.387 Y136.162 E11.27692
G1 X10.202 Y135.095 E11.31294
G1 X10.138 Y134.572 E11.33046
G1 X10.085 Y134.015 E11.34907
G1 X10.061 Y133.677 E11.36034
G1 X10.03 Y132.922 E11.38547
G1 X10.031 Y132.372 E11.40377
G1 X10.053 Y131.511 E11.43241
G1 X10.097 Y130.677 E11.46019
G1 X10.133 Y130.232 E11.47504
G1 X10.204 Y129.54 E11.49818
G1 X10.283 Y128.941 E11.51827
G1 X10.478 Y127.711 E11.55969
G1 X10.661 Y126.729 E11.59292
G1 X10.762 Y126.258 E11.60894
G1 X11.396 Y123.628 E11.69892
G1 X11.944 Y121.168 E11.78274
G1 X12.418 Y118.718 E11.86574
G1 X12.822 Y116.258 E11.94866
G1 X13.163 Y113.741 E12.03314
G1 X13.431 Y111.225 E12.11729
G1 X13.627 Y108.73 E12.20053
G1 X13.752 Y106.226 E12.28392
G1 X13.763 Y105.769 E12.29912
G1 X13.811 Y104.689 E12.33508
G1 X13.927 Y103.527 E12.37392
G1 X13.978 Y103.195 E12.38509
G1 X14.248 Y101.932 E12.42805
G1 X14.357 Y101.538 E12.44165
G1 X14.646 Y100.646 E12.47283
G1 X14.961 Y99.871 E12.50066
G1 X15.538 Y98.699 E12.54411
G1 X15.727 Y98.367 E12.55681
G1 X16.293 Y97.475 E12.59195
G1 X16.443 Y97.262 E12.60061
G1 X17.029 Y96.504 E12.63248
G1 X17.374 Y96.095 E12.65028
G1 X18.238 Y95.182 E12.69209
G1 X18.62 Y94.822 E12.70954
G1 X19.485 Y94.087 E12.7473
G1 X20.015 Y93.682 E12.76948
G1 X20.476 Y93.348 E12.78842
G1 X21.061 Y92.959 E12.81178
G1 X21.838 Y92.486 E12.84204
G1 X22.361 Y92.199 E12.86188
G1 X22.903 Y91.917 E12.8822
G1 X23.487 Y91.629 E12.90386
G1 X24.384 Y91.222 E12.93662
G1 X25.258 Y90.857 E12.96812
G1 X25.753 Y90.666 E12.98577
G1 X27.302 Y90.118 E13.04042
G1 X28.159 Y89.843 E13.07035
G0 F6000 X28.534 Y90.146
G1 F1200 X29.273 Y89.929 E13.09597
G1 X30.326 Y89.644 E13.13225
G1 X31.609 Y89.335 E13.17615
G1 X32.556 Y89.135 E13.20834
G1 X33.66 Y88.934 E13.24566
G1 X34.376 Y88.824 E13.26976
G1 X35.327 Y88.702 E13.30165
G1 X36.357 Y88.604 E13.33606
G1 X37.169 Y88.551 E13.36312
G1 X37.508 Y88.536 E13.37441
G1 X38.957 Y88.502 E13.42262
G1 X40.303 Y88.509 E13.46738
G1 X41.458 Y88.539 E13.50581
G1 X43.061 Y88.608 E13.55918
G1 X44.057 Y88.67 E13.59237
G1 X45.27 Y88.774 E13.63286
G1 X46.066 Y88.861 E13.65949
G1 X46.826 Y88.966 E13.68501
G1 X49.397 Y89.299 E13.77124
G1 X51.907 Y89.553 E13.85515
G1 X54.412 Y89.734 E13.93868
G1 X56.955 Y89.845 E14.02334
G1 X59.502 Y89.885 E14.10807
G1 X62.012 Y89.853 E14.19156
G1 X64.522 Y89.75 E14.27511
G1 X67.07 Y89.573 E14.36006
G1 X69.596 Y89.326 E14.44448
G1 X72.094 Y89.01 E14.52822
G1 X74.583 Y88.623 E14.612
G1 X77.057 Y88.167 E14.69567
G1 X79.531 Y87.639 E14.77981
G1 X82.018 Y87.033 E14.86495
G1 X84.401 Y86.38 E14.94713
G1 X86.181 Y85.837 E15.00903
G1 X86.319 Y85.801 E15.01377
G1 X87.494 Y85.44 E15.05465
G1 X88.385 Y85.208 E15.08528
G1 X89.024 Y85.091 E15.10688
G1 X89.427 Y85.03 E15.12044
G1 X90.342 Y84.932 E15.15105
G1 X91.288 Y84.915 E15.18252
G1 X92.728 Y84.954 E15.23043
G1 X93.339 Y84.982 E15.25077
G1 X95.863 Y85.026 E15.33473
G1 X98.373 Y85 E15.41822
G1 X100.916 Y84.901 E15.50287
G1 X103.437 Y84.731 E15.5869
G1 X105.945 Y84.491 E15.6707
G1 X106.79 Y84.384 E15.69903
G1 X108.204 Y84.224 E15.74636
G1 X109.269 Y84.158 E15.78185
G1 X109.603 Y84.154 E15.79296
G1 X110.523 Y84.183 E15.82358
G1 X111.295 Y84.265 E15.8494
G1 X111.819 Y84.343 E15.86702
G1 X114.239 Y84.763 E15.94871
G1 X116.735 Y85.127 E16.03261
G1 X119.286 Y85.424 E16.11803
G1 X121.775 Y85.643 E16.20113
G1 X124.298 Y85.795 E16.2852
G1 X126.799 Y85.872 E16.36842
G1 X129.737 Y85.863 E16.46614
G1 X131.236 Y85.877 E16.516
G1 X132.524 Y85.968 E16.55894
G1 X133.236 Y86.062 E16.58283
G1 X133.741 Y86.141 E16.59983
G1 X134.204 Y86.225 E16.61548
G1 X134.731 Y86.335 E16.63339
G1 X135.277 Y86.463 E16.65204
G1 X135.75 Y86.585 E16.66829
G1 X136.353 Y86.756 E16.68913
G1 X136.789 Y86.89 E16.7043
G1 X137.424 Y87.1 E16.72655
G1 X137.887 Y87.265 E16.7429
G1 X138.451 Y87.481 E16.76299
G1 X138.93 Y87.678 E16.78021
G1 X139.807 Y88.074 E16.81222
G1 X140.301 Y88.317 E16.83053
G1 X140.779 Y88.568 E16.84848
G1 X141.298 Y88.857 E16.86824
G1 X141.88 Y89.206 E16.89081
G1 X142.616 Y89.68 E16.91993
G1 X143.139 Y90.039 E16.94103
G1 X143.795 Y90.537 E16.96842
G1 X144.511 Y91.132 E16.99939
G1 X145.011 Y91.586 E17.02185
G1 X145.305 Y91.867 E17.03538
G1 X145.74 Y92.308 E17.05598
G1 X146.161 Y92.766 E17.07667
G1 X146.459 Y93.104 E17.09166
G1 X146.943 Y93.695 E17.11706
G1 X147.322 Y94.193 E17.13788
G1 X147.735 Y94.769 E17.16145
G1 X148.004 Y95.175 E17.17765
G1 X148.409 Y95.817 E17.2029
G1 X149.847 Y98.03 E17.29068
G1 X151.271 Y100.093 E17.37405
G1 X152.778 Y102.148 E17.45881
G1 X154.318 Y104.129 E17.54226
G1 X156.056 Y106.236 E17.63311
G1 X156.323 Y106.574 E17.64744
G1 X156.845 Y107.263 E17.67619
G1 X157.652 Y108.359 E17.72145
G1 X159.981 Y111.308 E17.84644
G1 X160.519 Y112.054 E17.87703
G1 X160.902 Y112.683 E17.90152
G1 X161.092 Y113.021 E17.91442
G1 X161.508 Y113.842 E17.94503
G1 X161.869 Y114.748 E17.97747
G1 X162.013 Y115.164 E17.99211
G1 X162.276 Y116.046 E18.02272
G1 X162.474 Y117.025 E18.05594
G1 X162.533 Y117.41 E18.0689
G1 X162.632 Y118.326 E18.09954
G1 X162.651 Y119.291 E18.13164
G1 X162.611 Y120.793 E18.18162
G1 X162.58 Y121.503 E18.20526
G1 X162.54 Y124.045 E18.28981
G1 X162.572 Y126.558 E18.3734
G1 X162.675 Y129.076 E18.45722
G1 X162.851 Y131.612 E18.54177
G1 X163.098 Y134.144 E18.62639
G1 X163.272 Y135.566 E18.67404
G1 X163.346 Y136.236 E18.69646
G1 X163.409 Y137.263 E18.73068
G1 X163.413 Y137.572 E18.74096
G1 X163.348 Y138.943 E18.78661
G1 X163.189 Y139.994 E18.82196
G1 X163.064 Y140.552 E18.84098
G1 X162.983 Y140.872 E18.85196
G1 X162.718 Y141.754 E18.88259
G1 X162.385 Y142.595 E18.91268
G1 X162.28 Y142.83 E18.92124
G1 X161.868 Y143.654 E18.95188
G1 X161.444 Y144.352 E18.97904
G1 X161.286 Y144.591 E18.98857
G1 X160.746 Y145.336 E19.01917
G1 X160.159 Y146.022 E19.0492
G1 X159.436 Y146.74 E19.08309
G1 X158.728 Y147.341 E19.11398
G1 X157.995 Y147.897 E19.14458
G1 X157.216 Y148.388 E19.17521
G1 X156.415 Y148.802 E19.2052
G1 X156.033 Y148.979 E19.2192
G1 X155.099 Y149.359 E19.25274
G1 X154.659 Y149.514 E19.26825
G1 X153.465 Y149.857 E19.30957
G1 X153.003 Y149.961 E19.32532
G1 X151.912 Y150.148 E19.36214
G1 X151.231 Y150.228 E19.38495
G1 X150.328 Y150.295 E19.41506
G1 X149.916 Y150.308 E19.42877
G1 X149.319 Y150.31 E19.44863
G1 X148.431 Y150.288 E19.47817
G1 X147.58 Y150.241 E19.50652
G1 X147.161 Y150.206 E19.5205
G1 X146.468 Y150.134 E19.54368
G1 X145.899 Y150.06 E19.56276
G1 X144.691 Y149.868 E19.60344
G1 X143.592 Y149.66 E19.64065
G1 X143.129 Y149.559 E19.65641
G1 X140.73 Y148.978 E19.73851
G1 X138.213 Y148.416 E19.82428
G1 X135.753 Y147.94 E19.90762
G1 X133.241 Y147.527 E19.99229
G1 X130.742 Y147.188 E20.07617
G1 X128.236 Y146.92 E20.15999
G1 X125.707 Y146.721 E20.24437
G1 X123.044 Y146.588 E20.33305
G1 X121.65 Y146.53 E20.37946
G1 X120.365 Y146.398 E20.42242
G1 X120.019 Y146.341 E20.43408
G1 X118.912 Y146.097 E20.47179
G1 X117.888 Y145.812 E20.50714
G1 X116.606 Y145.434 E20.55159
G1 X114.144 Y144.785 E20.63628
G1 X111.685 Y144.211 E20.72026
G1 X109.211 Y143.706 E20.80425
G1 X106.713 Y143.269 E20.88859
G1 X104.219 Y142.905 E20.97242
G1 X101.718 Y142.613 E21.05617
G1 X99.188 Y142.389 E21.14065
G1 X96.706 Y142.24 E21.22335
G1 X92.952 Y142.143 E21.34825
G1 X92.192 Y142.136 E21.37353
G1 X91.347 Y142.112 E21.40164
G1 X89.788 Y142.047 E21.45354
G1 X88.388 Y141.958 E21.5002
G1 X87.646 Y141.894 E21.52497
G1 X86.393 Y141.751 E21.56691
G1 X83.44 Y141.362 E21.66598
G1 X80.933 Y141.106 E21.7498
G1 X78.412 Y140.92 E21.83387
G1 X75.881 Y140.806 E21.91814
G1 X73.366 Y140.764 E22.0018
G1 X70.853 Y140.793 E22.08539
G1 X68.285 Y140.895 E22.17087
G1 X65.796 Y141.065 E22.25385
G1 X63.261 Y141.31 E22.33855
G1 X60.742 Y141.625 E22.42299
G1 X58.26 Y142.008 E22.50652
G1 X55.769 Y142.464 E22.59074
G1 X53.309 Y142.987 E22.67439
G1 X50.852 Y143.581 E22.75847
G1 X48.44 Y144.239 E22.84162
G1 X46.535 Y144.824 E22.9079
G1 X46.267 Y144.893 E22.91711
G1 X45.277 Y145.2 E22.95158
G1 X44.387 Y145.434 E22.98219
G1 X43.738 Y145.553 E23.00414
G1 X43.331 Y145.615 E23.01783
G1 X42.416 Y145.714 E23.04844
G1 X41.439 Y145.732 E23.08094
G1 X38.099 Y145.639 E23.19207
