;FLAVOR:Marlin
;TIME:3257
;Filament used: 1.73584m
;Layer height: 0.2
;MINX:28.337
;MINY:75.663
;MINZ:0.2
;MAXX:117.161
;MAXY:158.933
;MAXZ:6
;Generated with Cura_SteamEngine 5.2.1
M140 S50
M105
M190 S50
M104 S200
M105
M109 S200
M82 ;absolute extrusion mode
; Ender 3 Custom Start G-code
G92 E0 ; Reset Extruder
G28 ; Home all axes
G1 Z2.0 F3000 ; Move Z Axis up little to prevent scratching of Heat Bed
G1 X0.1 Y20 Z0.3 F5000.0 ; Move to start position
G1 X0.1 Y200.0 Z0.3 F1500.0 E15 ; Draw the first line
G1 X0.4 Y200.0 Z0.3 F5000.0 ; Move to side a little
G1 X0.4 Y20 Z0.3 F1500.0 E30 ; Draw the second line
G92 E0 ; Reset Extruder
G1 Z2.0 F3000 ; Move Z Axis up little to prevent scratching of Heat Bed
G1 X5 Y20 Z0.3 F5000.0 ; Move over to prevent blob squish
G92 E0
G92 E0
G1 F2700 E-5
;LAYER_COUNT:30
;LAYER:0
M107
G0 F6000 X40.759 Y95.731 Z0.2
;TYPE:SKIRT
G1 F2700 E0
G1 F1200 X41.63 Y95.372 E0.03133
G1 X43.771 Y94.509 E0.10811
G1 X46.065 Y93.508 E0.19136
G1 X48.349 Y92.434 E0.2753
G1 X50.624 Y91.284 E0.36009
G1 X52.804 Y90.104 E0.44254
G1 X54.986 Y88.84 E0.52641
G1 X57.126 Y87.52 E0.61003
G1 X59.245 Y86.131 E0.6943
G1 X61.299 Y84.697 E0.77762
G1 X63.323 Y83.196 E0.86143
G1 X65.263 Y81.672 E0.94349
G1 X68.217 Y79.18 E1.07203
G1 X68.482 Y78.947 E1.08376
G1 X69.546 Y78.12 E1.12859
G1 X69.89 Y77.885 E1.14244
G1 X70.686 Y77.39 E1.17362
G1 X71.649 Y76.906 E1.20947
G1 X71.993 Y76.754 E1.22197
G1 X72.866 Y76.412 E1.25316
G1 X74.194 Y76.048 E1.29896
G1 X74.64 Y75.955 E1.31411
G1 X75.587 Y75.8 E1.34603
G1 X75.991 Y75.752 E1.35956
G1 X77.1 Y75.677 E1.39653
G1 X77.915 Y75.663 E1.42364
G1 X78.783 Y75.682 E1.45252
G1 X79.284 Y75.713 E1.46921
G1 X79.942 Y75.768 E1.49117
G1 X80.45 Y75.826 E1.50818
G1 X81.015 Y75.904 E1.52715
G1 X81.601 Y75.998 E1.54689
G1 X82.781 Y76.224 E1.58685
G1 X85.548 Y76.812 E1.68094
G1 X88.015 Y77.262 E1.76434
G1 X90.484 Y77.642 E1.84743
G1 X92.968 Y77.952 E1.93069
G1 X96.859 Y78.298 E2.06061
G1 X98.141 Y78.385 E2.10335
G1 X99.073 Y78.489 E2.13454
G1 X100.303 Y78.751 E2.17637
G1 X100.741 Y78.871 E2.19147
G1 X101.634 Y79.157 E2.22266
G1 X102.398 Y79.464 E2.25005
G1 X103.648 Y80.105 E2.29677
G1 X103.973 Y80.297 E2.30932
G1 X104.759 Y80.808 E2.34051
G1 X105.454 Y81.346 E2.36974
G1 X105.773 Y81.614 E2.3836
G1 X106.664 Y82.451 E2.42426
G1 X106.942 Y82.743 E2.43767
G1 X107.758 Y83.705 E2.47962
G1 X108.077 Y84.128 E2.49724
G1 X108.565 Y84.831 E2.52571
G1 X108.784 Y85.174 E2.53924
G1 X109.242 Y85.962 E2.56956
G1 X109.53 Y86.508 E2.59009
G1 X109.795 Y87.044 E2.60997
G1 X110.082 Y87.668 E2.63282
G1 X110.415 Y88.451 E2.66112
G1 X110.616 Y88.975 E2.67979
G1 X111.044 Y90.192 E2.72269
G1 X111.33 Y91.088 E2.75398
G1 X111.453 Y91.506 E2.76847
G1 X111.783 Y92.738 E2.81089
G1 X111.9 Y93.225 E2.82755
G1 X112.048 Y93.903 E2.85063
G1 X112.288 Y95.192 E2.89424
G1 X112.4 Y95.95 E2.91972
G1 X112.505 Y96.859 E2.95016
G1 X112.568 Y97.616 E2.97542
G1 X112.598 Y98.118 E2.99215
G1 X112.789 Y100.7 E3.07826
G1 X113.047 Y103.227 E3.16275
G1 X113.374 Y105.726 E3.24657
G1 X113.768 Y108.191 E3.3296
G1 X114.239 Y110.683 E3.41395
G1 X114.775 Y113.136 E3.49746
G1 X115.365 Y115.518 E3.57908
G1 X116.337 Y118.941 E3.69743
G1 X116.563 Y119.688 E3.72339
G1 X116.79 Y120.565 E3.75352
G1 X116.852 Y120.853 E3.76332
G1 X117.017 Y121.833 E3.79637
G1 X117.068 Y122.25 E3.81035
G1 X117.147 Y123.397 E3.84859
G1 X117.161 Y124.217 E3.87586
G1 X117.142 Y125.079 E3.90454
G1 X117.111 Y125.584 E3.92137
G1 X117.054 Y126.259 E3.9439
G1 X116.999 Y126.742 E3.96007
G1 X116.924 Y127.288 E3.9784
G1 X116.83 Y127.879 E3.9983
G1 X116.6 Y129.083 E4.03907
G1 X116.012 Y131.85 E4.13316
G1 X115.567 Y134.286 E4.21552
G1 X115.182 Y136.786 E4.29965
G1 X114.872 Y139.27 E4.38291
G1 X114.526 Y143.161 E4.51283
G1 X114.439 Y144.443 E4.55557
G1 X114.335 Y145.375 E4.58676
G1 X114.071 Y146.611 E4.6288
G1 X113.951 Y147.048 E4.64387
G1 X113.665 Y147.941 E4.67506
G1 X113.363 Y148.682 E4.70167
G1 X112.804 Y149.8 E4.74325
G1 X112.616 Y150.128 E4.75582
G1 X112.115 Y150.921 E4.78702
G1 X111.501 Y151.726 E4.82069
G1 X111.205 Y152.079 E4.83602
G1 X110.352 Y152.986 E4.87743
G1 X110.072 Y153.252 E4.89027
G1 X109.122 Y154.057 E4.93169
G1 X108.698 Y154.377 E4.94936
G1 X107.985 Y154.873 E4.97824
G1 X107.643 Y155.091 E4.99173
G1 X106.862 Y155.544 E5.02176
G1 X106.316 Y155.832 E5.0423
G1 X105.774 Y156.099 E5.06239
G1 X105.149 Y156.386 E5.08527
G1 X104.382 Y156.713 E5.113
G1 X103.849 Y156.918 E5.13199
G1 X102.627 Y157.348 E5.17508
G1 X101.742 Y157.63 E5.20597
G1 X101.325 Y157.753 E5.22043
G1 X100.362 Y158.014 E5.25362
G1 X99.604 Y158.2 E5.27958
G1 X98.921 Y158.35 E5.30283
G1 X97.961 Y158.533 E5.33534
G1 X97.211 Y158.655 E5.36061
G1 X96.334 Y158.768 E5.39002
G1 X95.556 Y158.844 E5.41602
G1 X94.874 Y158.889 E5.43875
G1 X94.53 Y158.904 E5.45021
G1 X93.249 Y158.933 E5.49282
G1 X91.991 Y158.921 E5.53467
G1 X90.308 Y158.858 E5.59068
G1 X89.556 Y158.811 E5.61574
G1 X88.312 Y158.701 E5.65728
G1 X87.614 Y158.617 E5.68066
G1 X87.082 Y158.54 E5.69854
G1 X86.537 Y158.447 E5.71693
G1 X85.743 Y158.291 E5.74384
G1 X85.237 Y158.179 E5.76108
G1 X84.745 Y158.058 E5.77793
G1 X83.906 Y157.828 E5.80687
G1 X83.2 Y157.61 E5.83144
G1 X82.202 Y157.261 E5.86661
G1 X81.562 Y157.014 E5.88942
G1 X80.604 Y156.6 E5.92414
G1 X80.148 Y156.386 E5.94089
G1 X79.329 Y155.979 E5.97131
G1 X78.605 Y155.585 E5.99872
G1 X78.196 Y155.342 E6.01455
G1 X77.361 Y154.822 E6.04726
G1 X77.165 Y154.709 E6.05479
G1 X76.149 Y154.069 E6.09473
G1 X73.994 Y152.795 E6.17799
G1 X71.793 Y151.576 E6.26167
G1 X69.545 Y150.413 E6.34586
G1 X67.293 Y149.328 E6.429
G1 X65.001 Y148.303 E6.51251
G1 X62.656 Y147.332 E6.59692
G1 X60.282 Y146.427 E6.68143
G1 X57.912 Y145.6 E6.76491
G1 X55.55 Y144.849 E6.84735
G1 X53.13 Y144.154 E6.93109
G1 X50.653 Y143.519 E7.01614
G1 X48.234 Y142.971 E7.09864
G1 X45.741 Y142.48 E7.18315
G1 X43.283 Y142.068 E7.26604
G1 X40.22 Y141.651 E7.36886
G1 X39.465 Y141.561 E7.39415
G1 X38.696 Y141.442 E7.42003
G1 X38.299 Y141.366 E7.43347
G1 X37.386 Y141.15 E7.46468
G1 X36.495 Y140.858 E7.49586
G1 X35.632 Y140.491 E7.52705
G1 X35.069 Y140.202 E7.5481
G1 X34.645 Y139.969 E7.56419
G1 X33.843 Y139.483 E7.59538
G1 X33.086 Y138.93 E7.62656
G1 X32.378 Y138.315 E7.65775
G1 X31.725 Y137.641 E7.68897
G1 X30.906 Y136.601 E7.733
G1 X30.652 Y136.235 E7.74781
G1 X30.151 Y135.442 E7.77901
G1 X29.751 Y134.68 E7.80764
G1 X29.564 Y134.286 E7.82214
G1 X29.199 Y133.422 E7.85334
G1 X28.908 Y132.53 E7.88454
G1 X28.765 Y131.96 E7.90409
G1 X28.665 Y131.511 E7.91939
G1 X28.471 Y130.346 E7.95867
G1 X28.413 Y129.829 E7.97597
G1 X28.351 Y129.006 E8.00342
G1 X28.341 Y128.733 E8.01251
G1 X28.337 Y128.06 E8.0349
G1 X28.35 Y127.531 E8.0525
G1 X28.399 Y126.634 E8.08237
G1 X28.457 Y125.959 E8.10491
G1 X28.544 Y125.273 E8.12791
G1 X28.77 Y123.879 E8.17488
G1 X28.892 Y123.251 E8.19615
G1 X29.495 Y120.406 E8.29288
G1 X29.954 Y117.881 E8.37824
G1 X30.331 Y115.421 E8.46101
G1 X30.634 Y112.974 E8.54302
G1 X30.974 Y109.135 E8.67121
G1 X31.053 Y107.976 E8.70985
G1 X31.155 Y107.053 E8.74073
G1 X31.198 Y106.773 E8.75016
G1 X31.519 Y105.313 E8.79988
G1 X31.937 Y104.104 E8.84242
G1 X32.06 Y103.801 E8.8533
G1 X32.449 Y102.947 E8.88451
G1 X32.716 Y102.455 E8.90313
G1 X32.877 Y102.175 E8.91387
G1 X33.379 Y101.382 E8.94509
G1 X33.997 Y100.575 E8.97889
G1 X34.337 Y100.171 E8.99646
G1 X35.132 Y99.322 E9.03514
G1 X35.362 Y99.101 E9.04575
G1 X36.377 Y98.238 E9.09006
G1 X36.823 Y97.903 E9.10862
G1 X37.507 Y97.428 E9.13631
G1 X37.903 Y97.175 E9.15194
G1 X38.828 Y96.646 E9.18738
G1 X39.483 Y96.312 E9.21184
G1 X39.999 Y96.065 E9.23087
G1 X40.759 Y95.731 E9.25848
G0 F6000 X40.911 Y96.101
G1 F1200 X41.78 Y95.743 E9.28974
G1 X43.932 Y94.876 E9.3669
G1 X46.23 Y93.873 E9.4503
G1 X48.521 Y92.796 E9.5345
G1 X50.774 Y91.657 E9.61846
G1 X53.03 Y90.435 E9.7038
G1 X55.175 Y89.193 E9.78624
G1 X57.355 Y87.848 E9.87144
G1 X59.463 Y86.466 E9.95527
G1 X61.52 Y85.03 E10.03871
G1 X63.563 Y83.516 E10.12329
G1 X65.532 Y81.969 E10.20657
G1 X68.483 Y79.479 E10.33499
G1 X68.746 Y79.248 E10.34663
G1 X69.772 Y78.45 E10.38987
G1 X70.116 Y78.215 E10.40372
G1 X70.898 Y77.73 E10.43433
G1 X71.811 Y77.272 E10.4683
G1 X72.155 Y77.12 E10.48081
G1 X73.012 Y76.785 E10.51141
G1 X74.275 Y76.439 E10.55497
G1 X74.721 Y76.346 E10.57012
G1 X75.634 Y76.197 E10.60089
G1 X76.038 Y76.149 E10.61442
G1 X77.107 Y76.077 E10.65006
G1 X77.922 Y76.063 E10.67717
G1 X78.759 Y76.081 E10.70501
G1 X79.26 Y76.112 E10.72171
G1 X79.906 Y76.167 E10.74327
G1 X80.396 Y76.223 E10.75968
G1 X81.26 Y76.346 E10.7887
G1 X81.797 Y76.44 E10.80684
G1 X82.698 Y76.615 E10.83736
G1 X85.464 Y77.203 E10.93142
G1 X87.953 Y77.657 E11.01557
G1 X90.445 Y78.04 E11.09942
G1 X92.937 Y78.351 E11.18295
G1 X96.798 Y78.695 E11.31188
G1 X98.114 Y78.784 E11.35575
G1 X99.029 Y78.887 E11.38637
G1 X100.197 Y79.137 E11.4261
G1 X100.635 Y79.257 E11.44121
G1 X101.511 Y79.538 E11.4718
G1 X102.24 Y79.833 E11.49796
G1 X103.445 Y80.45 E11.54299
G1 X103.77 Y80.642 E11.55554
G1 X104.541 Y81.144 E11.58614
G1 X105.196 Y81.652 E11.61371
G1 X105.515 Y81.92 E11.62757
G1 X106.374 Y82.727 E11.66677
G1 X106.652 Y83.019 E11.68018
G1 X107.438 Y83.946 E11.7206
G1 X107.757 Y84.369 E11.73822
G1 X108.228 Y85.047 E11.76568
G1 X108.447 Y85.39 E11.77922
G1 X108.889 Y86.149 E11.80843
G1 X109.177 Y86.695 E11.82896
G1 X109.431 Y87.211 E11.84809
G1 X109.718 Y87.835 E11.87093
G1 X110.045 Y88.604 E11.89873
G1 X110.239 Y89.109 E11.91672
G1 X110.664 Y90.315 E11.95925
G1 X110.946 Y91.201 E11.99018
G1 X111.138 Y91.864 E12.01313
G1 X111.325 Y92.561 E12.03714
G1 X111.511 Y93.319 E12.06309
G1 X111.657 Y93.987 E12.08584
G1 X111.838 Y94.936 E12.11797
G1 X111.956 Y95.665 E12.14253
G1 X112.07 Y96.544 E12.17201
G1 X112.107 Y96.895 E12.18375
G1 X112.169 Y97.64 E12.20862
G1 X112.201 Y98.168 E12.22621
G1 X112.39 Y100.737 E12.31189
G1 X112.651 Y103.283 E12.39701
G1 X112.976 Y105.769 E12.4804
G1 X113.373 Y108.256 E12.56416
G1 X113.848 Y110.771 E12.64929
G1 X114.381 Y113.211 E12.73236
G1 X114.98 Y115.628 E12.81518
G1 X115.953 Y119.056 E12.9337
G1 X116.18 Y119.804 E12.9597
G1 X116.399 Y120.649 E12.98873
G1 X116.461 Y120.937 E12.99853
G1 X116.62 Y121.881 E13.03037
G1 X116.671 Y122.298 E13.04434
G1 X116.747 Y123.404 E13.08122
G1 X116.761 Y124.224 E13.10849
G1 X116.743 Y125.054 E13.13611
G1 X116.712 Y125.559 E13.15293
G1 X116.656 Y126.222 E13.17506
G1 X116.602 Y126.687 E13.19063
G1 X116.485 Y127.516 E13.21848
G1 X116.384 Y128.099 E13.23816
G1 X116.209 Y129 E13.26869
G1 X115.621 Y131.766 E13.36274
G1 X115.167 Y134.255 E13.44689
G1 X114.784 Y136.747 E13.53075
G1 X114.473 Y139.239 E13.61428
G1 X114.129 Y143.1 E13.7432
G1 X114.04 Y144.416 E13.78707
G1 X113.937 Y145.331 E13.8177
G1 X113.686 Y146.505 E13.85763
G1 X113.566 Y146.942 E13.8727
G1 X113.284 Y147.818 E13.90331
G1 X112.995 Y148.524 E13.92868
G1 X112.456 Y149.601 E13.96874
G1 X112.268 Y149.929 E13.98131
G1 X111.776 Y150.707 E14.01193
G1 X111.194 Y151.469 E14.04382
G1 X110.898 Y151.822 E14.05914
G1 X110.077 Y152.696 E14.09903
G1 X109.797 Y152.962 E14.11187
G1 X108.882 Y153.738 E14.15177
G1 X108.458 Y154.058 E14.16944
G1 X107.77 Y154.536 E14.19731
G1 X107.428 Y154.754 E14.2108
G1 X106.675 Y155.191 E14.23975
G1 X106.129 Y155.479 E14.26028
G1 X105.607 Y155.736 E14.27964
G1 X104.982 Y156.023 E14.30251
G1 X104.229 Y156.344 E14.32974
G1 X103.715 Y156.541 E14.34804
G1 X102.504 Y156.967 E14.39074
G1 X101.629 Y157.246 E14.42129
G1 X100.956 Y157.441 E14.44459
G1 X99.996 Y157.695 E14.47762
G1 X99.51 Y157.812 E14.49425
G1 X98.837 Y157.959 E14.51716
G1 X97.888 Y158.14 E14.54929
G1 X97.149 Y158.26 E14.57419
G1 X96.285 Y158.371 E14.60317
G1 X95.52 Y158.446 E14.62873
G1 X94.851 Y158.49 E14.65103
G1 X93.595 Y158.529 E14.69283
G1 X93.251 Y158.533 E14.70427
G1 X92.005 Y158.521 E14.74571
G1 X90.333 Y158.458 E14.80136
G1 X89.322 Y158.392 E14.83506
G1 X88.645 Y158.333 E14.85766
G1 X87.982 Y158.261 E14.87984
G1 X87.14 Y158.144 E14.90812
G1 X86.614 Y158.054 E14.92587
G1 X85.82 Y157.898 E14.95278
G1 X85.333 Y157.79 E14.96937
G1 X84.501 Y157.58 E14.99791
G1 X84.014 Y157.443 E15.01474
G1 X83.321 Y157.229 E15.03886
G1 X82.337 Y156.885 E15.07353
G1 X81.71 Y156.642 E15.0959
G1 X80.766 Y156.234 E15.1301
G1 X80.326 Y156.027 E15.14628
G1 X79.507 Y155.62 E15.17669
G1 X78.81 Y155.241 E15.20308
G1 X77.378 Y154.37 E15.25883
G1 X76.37 Y153.735 E15.29845
G1 X74.186 Y152.444 E15.38283
G1 X71.992 Y151.228 E15.46627
G1 X69.724 Y150.056 E15.55118
G1 X67.465 Y148.967 E15.63459
G1 X65.138 Y147.926 E15.71937
G1 X62.815 Y146.964 E15.803
G1 X60.408 Y146.047 E15.88867
G1 X58.06 Y145.227 E15.97139
G1 X55.643 Y144.459 E16.05574
G1 X53.234 Y143.768 E16.1391
G1 X50.761 Y143.134 E16.22401
G1 X48.329 Y142.582 E16.30695
G1 X45.82 Y142.088 E16.39201
G1 X43.338 Y141.672 E16.47571
G1 X40.264 Y141.253 E16.5789
G1 X39.512 Y141.164 E16.60408
G1 X38.771 Y141.049 E16.62902
G1 X38.374 Y140.973 E16.64247
G1 X37.478 Y140.761 E16.67309
G1 X36.604 Y140.472 E16.70371
G1 X35.758 Y140.108 E16.73434
G1 X35.262 Y139.852 E16.7529
G1 X34.838 Y139.619 E16.769
G1 X34.051 Y139.141 E16.79962
G1 X33.309 Y138.596 E16.83024
G1 X32.616 Y137.989 E16.86088
G1 X31.979 Y137.325 E16.89149
G1 X31.235 Y136.373 E16.93167
G1 X30.981 Y136.007 E16.94649
G1 X30.489 Y135.228 E16.97714
G1 X30.113 Y134.508 E17.00415
G1 X29.926 Y134.114 E17.01866
G1 X29.568 Y133.266 E17.04927
G1 X29.284 Y132.39 E17.0799
G1 X29.156 Y131.873 E17.09762
G1 X29.056 Y131.424 E17.11292
G1 X28.868 Y130.302 E17.15075
G1 X28.81 Y129.785 E17.16806
G1 X28.751 Y128.991 E17.19454
G1 X28.741 Y128.718 E17.20362
G1 X28.737 Y128.07 E17.22518
G1 X28.75 Y127.541 E17.24278
G1 X28.798 Y126.659 E17.27216
G1 X28.855 Y125.997 E17.29426
G1 X28.939 Y125.335 E17.31645
G1 X29.163 Y123.954 E17.36298
G1 X29.283 Y123.333 E17.38402
G1 X29.894 Y120.449 E17.48207
G1 X30.343 Y117.982 E17.56547
G1 X30.729 Y115.459 E17.65036
G1 X31.03 Y113.03 E17.73177
G1 X31.374 Y109.148 E17.86139
G1 X31.452 Y108.003 E17.89956
G1 X31.551 Y107.114 E17.92931
G1 X31.594 Y106.834 E17.93874
G1 X31.903 Y105.425 E17.98671
G1 X32.307 Y104.254 E18.02791
G1 X32.43 Y103.951 E18.03879
G1 X32.813 Y103.114 E18.06941
G1 X33.224 Y102.374 E18.09756
G1 X33.717 Y101.597 E18.12817
G1 X34.303 Y100.833 E18.16019
G1 X34.643 Y100.429 E18.17775
G1 X35.409 Y99.611 E18.21503
G1 X35.639 Y99.39 E18.22563
G1 X36.617 Y98.558 E18.26834
G1 X37.063 Y98.223 E18.28689
G1 X37.722 Y97.765 E18.31359
G1 X38.118 Y97.512 E18.32922
G1 X39.01 Y97.002 E18.36339
G1 X39.665 Y96.668 E18.38784
G1 X40.162 Y96.431 E18.40616
G1 X40.911 Y96.101 E18.43338
G0 F6000 X41.064 Y96.471
G1 F1200 X41.929 Y96.114 E18.4645
G1 X44.075 Y95.249 E18.54146
G1 X46.411 Y94.23 E18.62623
G1 X48.693 Y93.157 E18.7101
G1 X50.98 Y92.001 E18.79533
G1 X53.2 Y90.799 E18.8793
G1 X55.406 Y89.521 E18.96409
G1 X57.554 Y88.196 E19.04803
G1 X59.69 Y86.795 E19.13299
G1 X61.765 Y85.347 E19.21715
G1 X63.802 Y83.837 E19.30149
G1 X65.784 Y82.28 E19.38532
G1 X68.722 Y79.802 E19.51315
G1 X69.01 Y79.548 E19.52592
G1 X69.997 Y78.781 E19.5675
G1 X70.341 Y78.546 E19.58135
G1 X71.109 Y78.07 E19.61141
G1 X71.973 Y77.638 E19.64354
G1 X72.317 Y77.486 E19.65604
G1 X73.158 Y77.158 E19.68607
G1 X74.357 Y76.831 E19.7274
G1 X74.803 Y76.738 E19.74256
G1 X75.682 Y76.594 E19.77218
G1 X76.086 Y76.546 E19.78571
G1 X77.114 Y76.477 E19.81998
G1 X77.929 Y76.463 E19.84709
G1 X78.734 Y76.48 E19.87387
G1 X79.235 Y76.511 E19.89057
G1 X79.869 Y76.565 E19.91173
G1 X80.341 Y76.619 E19.92753
G1 X81.194 Y76.741 E19.95619
G1 X81.721 Y76.832 E19.97398
G1 X82.43 Y76.969 E19.998
G1 X85.374 Y77.593 E20.09809
G1 X87.892 Y78.053 E20.18323
G1 X90.367 Y78.434 E20.26651
G1 X92.884 Y78.748 E20.35088
G1 X96.781 Y79.094 E20.481
G1 X98.087 Y79.183 E20.52454
G1 X98.984 Y79.284 E20.55457
G1 X100.091 Y79.523 E20.59223
G1 X100.529 Y79.643 E20.60734
G1 X101.389 Y79.919 E20.63738
G1 X102.148 Y80.234 E20.66471
G1 X103.241 Y80.794 E20.70556
G1 X103.566 Y80.986 E20.71811
G1 X104.323 Y81.479 E20.74816
G1 X104.939 Y81.958 E20.77411
G1 X105.258 Y82.226 E20.78797
G1 X106.084 Y83.003 E20.82569
G1 X106.362 Y83.295 E20.8391
G1 X107.119 Y84.186 E20.87798
G1 X107.438 Y84.609 E20.8956
G1 X107.891 Y85.262 E20.92204
G1 X108.11 Y85.605 E20.93557
G1 X108.535 Y86.335 E20.96367
