;FLAVOR:Marlin
;TIME:233
;Filament used: 0.0767567m
;Layer height: 0.2
;MINX:108.119
;MINY:103.515
;MINZ:0.2
;MAXX:146.227
;MAXY:131.488
;MAXZ:4.6
;Generated with Cura_SteamEngine 5.2.1
M140 S50
M105
M190 S50
M104 S200
M105
M109 S200
M82 ;absolute extrusion mode
; Ender 3 Custom Start G-code
G92 E0 ; Reset Extruder
G28 ; Home all axes
G1 Z2.0 F3000 ; Move Z Axis up little to prevent scratching of Heat Bed
G1 X0.1 Y20 Z0.3 F5000.0 ; Move to start position
G1 X0.1 Y200.0 Z0.3 F1500.0 E15 ; Draw the first line
G1 X0.4 Y200.0 Z0.3 F5000.0 ; Move to side a little
G1 X0.4 Y20 Z0.3 F1500.0 E30 ; Draw the second line
G92 E0 ; Reset Extruder
G1 Z2.0 F3000 ; Move Z Axis up little to prevent scratching of Heat Bed
G1 X5 Y20 Z0.3 F5000.0 ; Move over to prevent blob squish
G92 E0
G92 E0
G1 F2700 E-5
;LAYER_COUNT:23
;LAYER:0
M107
G0 F6000 X111.771 Y108.05 Z0.2
;TYPE:SKIRT
G1 F2700 E0
G1 F1200 X112.734 Y107.11 E0.04476
G1 X113.091 Y106.802 E0.06044
G1 X114.119 Y106.016 E0.10348
G1 X114.529 Y105.739 E0.11994
G1 X115.328 Y105.248 E0.15113
G1 X116.513 Y104.677 E0.19488
G1 X116.986 Y104.483 E0.21188
G1 X117.868 Y104.164 E0.24308
G1 X118.342 Y104.027 E0.25949
G1 X118.791 Y103.908 E0.27494
G1 X119.707 Y103.707 E0.30613
G1 X120.861 Y103.566 E0.3448
G1 X121.316 Y103.535 E0.35997
G1 X122.46 Y103.517 E0.39802
G1 X123.362 Y103.55 E0.42804
G1 X125.982 Y103.621 E0.51522
G1 X128.506 Y103.619 E0.59916
G1 X130.656 Y103.56 E0.6707
G1 X131.82 Y103.515 E0.70944
G1 X132.974 Y103.531 E0.74783
G1 X133.398 Y103.559 E0.76196
G1 X134.33 Y103.661 E0.79315
G1 X135.326 Y103.86 E0.82693
G1 X135.672 Y103.946 E0.83879
G1 X136.826 Y104.301 E0.87894
G1 X137.333 Y104.488 E0.89692
G1 X138.198 Y104.849 E0.92809
G1 X138.855 Y105.185 E0.95264
G1 X139.18 Y105.365 E0.96499
G1 X139.981 Y105.854 E0.99621
G1 X140.405 Y106.153 E1.01346
G1 X140.711 Y106.38 E1.02613
G1 X141.77 Y107.275 E1.07225
G1 X142.11 Y107.601 E1.08792
G1 X142.759 Y108.278 E1.11911
G1 X143.297 Y108.941 E1.14751
G1 X143.706 Y109.504 E1.17065
G1 X143.913 Y109.807 E1.18286
G1 X144.408 Y110.603 E1.21404
G1 X144.757 Y111.274 E1.23919
G1 X145.036 Y111.876 E1.26126
G1 X145.171 Y112.189 E1.2726
G1 X145.505 Y113.065 E1.30378
G1 X145.8 Y114.121 E1.34025
G1 X145.915 Y114.63 E1.3576
G1 X146.082 Y115.553 E1.3888
G1 X146.138 Y116.034 E1.40491
G1 X146.18 Y116.485 E1.41997
G1 X146.227 Y117.422 E1.45118
G1 X146.177 Y118.549 E1.4887
G1 X146.144 Y118.895 E1.50026
G1 X145.96 Y120.108 E1.54106
G1 X145.83 Y120.728 E1.56213
G1 X145.598 Y121.637 E1.59333
G1 X145.29 Y122.523 E1.62453
G1 X145.09 Y122.996 E1.64161
G1 X144.84 Y123.55 E1.66183
G1 X144.419 Y124.387 E1.69299
G1 X143.68 Y125.536 E1.73843
G1 X143.351 Y125.984 E1.75692
G1 X142.764 Y126.716 E1.78812
G1 X142.041 Y127.467 E1.8228
G1 X141.694 Y127.795 E1.83868
G1 X140.986 Y128.41 E1.86987
G1 X140.298 Y128.922 E1.89839
G1 X139.146 Y129.654 E1.94379
G1 X138.805 Y129.842 E1.95674
G1 X137.965 Y130.259 E1.98793
G1 X137.498 Y130.454 E2.00476
G1 X137.127 Y130.599 E2.01801
G1 X136.24 Y130.903 E2.0492
G1 X135.731 Y131.04 E2.06673
G1 X135.272 Y131.152 E2.08245
G1 X134.352 Y131.336 E2.11365
G1 X133.504 Y131.434 E2.14204
G1 X132.828 Y131.476 E2.16457
G1 X132.486 Y131.488 E2.17595
G1 X131.713 Y131.488 E2.20166
G1 X129.014 Y131.393 E2.29149
G1 X126.516 Y131.376 E2.37457
G1 X123.665 Y131.455 E2.46943
G1 X123.406 Y131.451 E2.47805
G1 X122.362 Y131.488 E2.51279
G1 X121.425 Y131.481 E2.54396
G1 X120.672 Y131.418 E2.56909
G1 X120.412 Y131.387 E2.5778
G1 X119.704 Y131.281 E2.60161
G1 X118.499 Y131.013 E2.64267
G1 X118.014 Y130.876 E2.65943
G1 X117.123 Y130.583 E2.69063
G1 X116.002 Y130.087 E2.7314
G1 X115.575 Y129.869 E2.74735
G1 X114.759 Y129.407 E2.77853
G1 X114.329 Y129.125 E2.79564
G1 X114.003 Y128.9 E2.80881
G1 X113.254 Y128.335 E2.84002
G1 X112.88 Y128.012 E2.85645
G1 X112.489 Y127.659 E2.87397
G1 X111.82 Y127.001 E2.90518
G1 X110.982 Y125.988 E2.94891
G1 X110.666 Y125.556 E2.96671
G1 X110.145 Y124.776 E2.99791
G1 X109.638 Y123.845 E3.03317
G1 X109.384 Y123.319 E3.0526
G1 X109.013 Y122.458 E3.08378
G1 X108.675 Y121.422 E3.12002
G1 X108.582 Y121.08 E3.13181
G1 X108.317 Y119.814 E3.17483
G1 X108.239 Y119.29 E3.19245
G1 X108.14 Y118.357 E3.22366
G1 X108.119 Y117.67 E3.24652
G1 X108.119 Y117.309 E3.25853
G1 X108.207 Y115.921 E3.30478
G1 X108.257 Y115.528 E3.31796
G1 X108.415 Y114.603 E3.34917
G1 X108.544 Y114.068 E3.36748
G1 X108.67 Y113.598 E3.38366
G1 X108.951 Y112.703 E3.41486
G1 X109.341 Y111.764 E3.44868
G1 X109.621 Y111.185 E3.47007
G1 X109.773 Y110.889 E3.48114
G1 X110.236 Y110.074 E3.51231
G1 X110.809 Y109.246 E3.5458
G1 X111.171 Y108.771 E3.56567
G1 X111.771 Y108.05 E3.59686
G0 F6000 X112.079 Y108.307
G1 F1200 X112.996 Y107.413 E3.63946
G1 X113.353 Y107.105 E3.65514
G1 X114.343 Y106.348 E3.69659
G1 X114.753 Y106.071 E3.71305
G1 X115.537 Y105.589 E3.74366
G1 X116.665 Y105.047 E3.78528
G1 X117.138 Y104.853 E3.80229
G1 X118.444 Y104.414 E3.84811
G1 X118.893 Y104.295 E3.86356
G1 X119.793 Y104.098 E3.89421
G1 X120.888 Y103.966 E3.93089
G1 X121.343 Y103.935 E3.94606
G1 X122.446 Y103.917 E3.98275
G1 X123.336 Y103.949 E4.01237
G1 X125.972 Y104.021 E4.10008
G1 X128.517 Y104.019 E4.18472
G1 X130.684 Y103.96 E4.25682
G1 X131.836 Y103.915 E4.29517
G1 X132.947 Y103.93 E4.33212
G1 X133.371 Y103.958 E4.34626
G1 X134.287 Y104.059 E4.37691
G1 X135.23 Y104.248 E4.4089
G1 X135.576 Y104.334 E4.42075
G1 X136.687 Y104.676 E4.45942
G1 X137.194 Y104.863 E4.47739
G1 X138.043 Y105.219 E4.50801
G1 X138.662 Y105.535 E4.53113
G1 X138.987 Y105.715 E4.54348
G1 X139.772 Y106.196 E4.5741
G1 X140.472 Y106.702 E4.60283
G1 X141.493 Y107.564 E4.64727
G1 X141.833 Y107.89 E4.66294
G1 X142.469 Y108.555 E4.69355
G1 X142.977 Y109.181 E4.72036
G1 X143.376 Y109.73 E4.74293
G1 X143.583 Y110.033 E4.75514
G1 X144.068 Y110.815 E4.78574
G1 X144.396 Y111.446 E4.8094
G1 X144.668 Y112.034 E4.83095
G1 X144.803 Y112.347 E4.84228
G1 X145.131 Y113.207 E4.8729
G1 X145.409 Y114.209 E4.90748
G1 X145.524 Y114.718 E4.92484
G1 X145.739 Y116.071 E4.9704
G1 X145.781 Y116.522 E4.98547
G1 X145.827 Y117.442 E5.01611
G1 X145.779 Y118.511 E5.0517
G1 X145.746 Y118.857 E5.06326
G1 X145.568 Y120.026 E5.10259
G1 X145.438 Y120.646 E5.12366
G1 X145.211 Y121.538 E5.15427
G1 X144.906 Y122.407 E5.1849
G1 X144.726 Y122.831 E5.20022
G1 X144.476 Y123.385 E5.22044
G1 X144.061 Y124.207 E5.25106
G1 X143.358 Y125.299 E5.29426
G1 X143.029 Y125.747 E5.31275
G1 X142.452 Y126.465 E5.34338
G1 X141.766 Y127.176 E5.37624
G1 X141.419 Y127.504 E5.39212
G1 X140.366 Y128.378 E5.43764
G1 X140.063 Y128.598 E5.45009
G1 X138.953 Y129.304 E5.49385
G1 X138.612 Y129.492 E5.5068
G1 X137.787 Y129.901 E5.53743
G1 X136.982 Y130.227 E5.56631
G1 X136.11 Y130.524 E5.59695
G1 X135.636 Y130.652 E5.61328
G1 X135.177 Y130.764 E5.629
G1 X134.274 Y130.943 E5.65961
G1 X133.473 Y131.035 E5.68643
G1 X132.814 Y131.076 E5.70839
G1 X132.472 Y131.088 E5.71977
G1 X131.727 Y131.088 E5.74455
G1 X129.031 Y130.993 E5.83428
G1 X126.507 Y130.976 E5.91823
G1 X123.654 Y131.055 E6.01315
G1 X123.399 Y131.051 E6.02164
G1 X122.348 Y131.088 E6.05662
G1 X121.428 Y131.081 E6.08722
G1 X120.719 Y131.02 E6.11088
G1 X119.848 Y130.905 E6.1401
G1 X118.608 Y130.628 E6.18236
G1 X118.123 Y130.491 E6.19913
G1 X117.248 Y130.202 E6.22978
G1 X116.184 Y129.731 E6.26848
G1 X115.757 Y129.513 E6.28442
G1 X114.956 Y129.059 E6.31505
G1 X114.23 Y128.571 E6.34414
G1 X113.148 Y127.715 E6.39003
G1 X112.757 Y127.362 E6.40755
G1 X112.101 Y126.716 E6.43817
G1 X111.305 Y125.752 E6.47975
G1 X110.989 Y125.32 E6.49755
G1 X110.478 Y124.554 E6.52818
G1 X109.999 Y123.671 E6.56159
G1 X109.745 Y123.145 E6.58102
G1 X109.381 Y122.3 E6.61162
G1 X109.061 Y121.317 E6.646
G1 X108.968 Y120.975 E6.65779
G1 X108.713 Y119.755 E6.69925
G1 X108.635 Y119.231 E6.71687
G1 X108.539 Y118.315 E6.7475
G1 X108.519 Y117.67 E6.76896
G1 X108.519 Y117.309 E6.78097
G1 X108.604 Y115.971 E6.82556
G1 X108.654 Y115.578 E6.83874
G1 X108.81 Y114.671 E6.86935
G1 X108.931 Y114.171 E6.88646
G1 X109.057 Y113.701 E6.90264
G1 X109.333 Y112.823 E6.93325
G1 X109.703 Y111.935 E6.96525
G1 X109.977 Y111.368 E6.98619
G1 X110.129 Y111.072 E6.99726
G1 X110.584 Y110.272 E7.02787
G1 X111.127 Y109.489 E7.05956
G1 X111.489 Y109.014 E7.07943
G1 X112.079 Y108.307 E7.11006
G0 F6000 X112.386 Y108.563
G1 F1200 X113.257 Y107.716 E7.15046
G1 X113.614 Y107.408 E7.16615
G1 X114.567 Y106.679 E7.20605
G1 X114.977 Y106.402 E7.22251
G1 X115.747 Y105.93 E7.25255
G1 X116.816 Y105.417 E7.29199
G1 X117.289 Y105.223 E7.30899
G1 X118.547 Y104.8 E7.35313
G1 X118.996 Y104.681 E7.36858
G1 X119.878 Y104.489 E7.39861
G1 X120.916 Y104.365 E7.43338
G1 X121.371 Y104.334 E7.44854
G1 X122.432 Y104.317 E7.48384
G1 X123.313 Y104.349 E7.51316
G1 X125.962 Y104.421 E7.6013
G1 X128.528 Y104.419 E7.68664
G1 X130.708 Y104.36 E7.75918
G1 X131.851 Y104.315 E7.79722
G1 X132.921 Y104.329 E7.83281
G1 X133.345 Y104.357 E7.84695
G1 X134.243 Y104.457 E7.877
G1 X135.133 Y104.636 E7.90719
G1 X135.479 Y104.722 E7.91905
G1 X136.549 Y105.051 E7.95628
G1 X137.056 Y105.238 E7.97426
G1 X137.888 Y105.588 E8.00428
G1 X138.468 Y105.885 E8.02595
G1 X138.793 Y106.065 E8.03831
G1 X139.928 Y106.796 E8.08321
G1 X140.234 Y107.023 E8.09588
G1 X141.216 Y107.853 E8.13865
G1 X141.556 Y108.179 E8.15431
G1 X142.18 Y108.832 E8.18436
G1 X142.657 Y109.421 E8.20956
G1 X143.045 Y109.955 E8.23152
G1 X143.252 Y110.258 E8.24372
G1 X143.728 Y111.026 E8.27378
G1 X144.035 Y111.619 E8.29599
G1 X144.301 Y112.192 E8.317
G1 X144.436 Y112.505 E8.32833
G1 X144.757 Y113.35 E8.3584
G1 X145.019 Y114.297 E8.39108
G1 X145.134 Y114.806 E8.40844
G1 X145.341 Y116.108 E8.45228
G1 X145.383 Y116.559 E8.46735
G1 X145.427 Y117.461 E8.49739
G1 X145.381 Y118.473 E8.53108
G1 X145.348 Y118.819 E8.54264
G1 X145.177 Y119.944 E8.58049
G1 X145.047 Y120.564 E8.60156
G1 X144.823 Y121.439 E8.6316
G1 X144.361 Y122.666 E8.67521
G1 X144.111 Y123.22 E8.69542
G1 X143.704 Y124.026 E8.72545
G1 X143.035 Y125.062 E8.76647
G1 X142.706 Y125.51 E8.78496
G1 X142.14 Y126.214 E8.815
G1 X141.492 Y126.886 E8.84605
G1 X141.145 Y127.214 E8.86193
G1 X140.131 Y128.055 E8.90575
G1 X139.828 Y128.275 E8.9182
G1 X138.76 Y128.953 E8.96028
G1 X138.419 Y129.141 E8.97323
G1 X137.207 Y129.709 E9.01775
G1 X136.836 Y129.854 E9.031
G1 X135.981 Y130.145 E9.06103
G1 X135.541 Y130.263 E9.07619
G1 X135.082 Y130.375 E9.0919
G1 X134.196 Y130.55 E9.12194
G1 X133.443 Y130.636 E9.14715
G1 X132.8 Y130.677 E9.16858
G1 X132.458 Y130.689 E9.17996
G1 X131.741 Y130.689 E9.20381
G1 X129.012 Y130.593 E9.29463
G1 X126.499 Y130.576 E9.37821
G1 X123.643 Y130.655 E9.47324
G1 X123.407 Y130.651 E9.48109
G1 X122.334 Y130.689 E9.5168
G1 X121.431 Y130.681 E9.54684
G1 X120.766 Y130.623 E9.56904
G1 X119.913 Y130.51 E9.59766
G1 X118.716 Y130.243 E9.63845
G1 X118.231 Y130.106 E9.65521
G1 X117.374 Y129.822 E9.68524
G1 X116.366 Y129.375 E9.72191
G1 X115.939 Y129.157 E9.73786
G1 X114.783 Y128.467 E9.78264
G1 X114.457 Y128.242 E9.79581
G1 X113.416 Y127.418 E9.83997
G1 X113.025 Y127.065 E9.85749
G1 X112.382 Y126.431 E9.88752
G1 X111.627 Y125.516 E9.92698
G1 X111.311 Y125.084 E9.94478
G1 X110.811 Y124.332 E9.97482
G1 X110.359 Y123.497 E10.0064
G1 X110.105 Y122.971 E10.02582
G1 X109.749 Y122.142 E10.05583
G1 X109.447 Y121.212 E10.08835
G1 X109.354 Y120.87 E10.10014
G1 X109.108 Y119.696 E10.14004
G1 X109.03 Y119.172 E10.15766
G1 X108.937 Y118.273 E10.18772
G1 X108.919 Y117.67 E10.20778
G1 X108.919 Y117.309 E10.21979
G1 X109.001 Y116.022 E10.26268
G1 X109.051 Y115.629 E10.27586
G1 X109.204 Y114.739 E10.30589
G1 X109.317 Y114.275 E10.32178
G1 X109.443 Y113.805 E10.33796
G1 X109.715 Y112.944 E10.36799
G1 X110.065 Y112.105 E10.39823
G1 X110.332 Y111.551 E10.41869
G1 X110.484 Y111.255 E10.42975
G1 X110.932 Y110.47 E10.45981
G1 X111.445 Y109.731 E10.48974
G1 X111.807 Y109.256 E10.5096
G1 X112.386 Y108.563 E10.53963
G1 F2700 E5.53963
;MESH:eyes v1.stl(1)
G0 F6000 X119.338 Y115.091
G0 X121.984 Y119.902
;TYPE:WALL-INNER
G1 F2700 E10.53963
G1 F1200 X122.448 Y119.879 E10.55509
G1 X122.811 Y119.79 E10.56752
G1 X123.114 Y119.673 E10.57832
G1 X123.388 Y119.524 E10.58869
G1 X123.635 Y119.345 E10.59884
G1 X123.921 Y119.073 E10.61197
G1 X124.186 Y118.699 E10.62721
G1 X124.349 Y118.338 E10.64039
G1 X124.46 Y117.972 E10.65311
G1 X124.507 Y117.501 E10.66885
G1 X124.462 Y117.043 E10.68416
G1 X124.35 Y116.667 E10.69721
G1 X124.191 Y116.309 E10.71023
G1 X123.928 Y115.936 E10.72541
G1 X123.643 Y115.662 E10.73856
G1 X123.392 Y115.479 E10.74889
G1 X123.123 Y115.331 E10.75911
G1 X122.82 Y115.214 E10.76991
G1 X122.457 Y115.122 E10.78236
G1 X122.07 Y115.102 E10.79525
G1 X121.679 Y115.134 E10.8083
G1 X121.321 Y115.235 E10.82067
G1 X120.943 Y115.393 E10.8343
G1 X120.628 Y115.608 E10.84698
G1 X120.339 Y115.867 E10.85989
G1 X120.055 Y116.239 E10.87546
G1 X119.85 Y116.657 E10.89094
G1 X119.75 Y117.034 E10.90392
G1 X119.709 Y117.342 E10.91425
G1 X119.709 Y117.501 E10.91954
G1 X119.709 Y117.656 E10.92469
G1 X119.749 Y117.956 E10.93476
G1 X119.845 Y118.328 E10.94754
G1 X120.048 Y118.75 E10.96311
G1 X120.332 Y119.125 E10.97876
G1 X120.62 Y119.385 E10.99166
G1 X120.876 Y119.561 E11.002
G1 X121.221 Y119.737 E11.01488
G1 X121.598 Y119.845 E11.02792
G1 X121.984 Y119.902 E11.0409
G0 F6000 X121.964 Y120.304
;TYPE:WALL-OUTER
G1 F1200 X122.506 Y120.277 E11.05895
G1 X122.931 Y120.172 E11.07351
G1 X123.282 Y120.037 E11.08602
G1 X123.602 Y119.863 E11.09813
G1 X123.891 Y119.653 E11.11001
G1 X124.225 Y119.336 E11.12533
G1 X124.534 Y118.899 E11.14313
G1 X124.725 Y118.479 E11.15848
G1 X124.854 Y118.05 E11.17338
G1 X124.909 Y117.501 E11.19173
G1 X124.856 Y116.965 E11.20964
G1 X124.726 Y116.528 E11.22481
G1 X124.541 Y116.111 E11.23998
G1 X124.233 Y115.674 E11.25776
G1 X123.901 Y115.355 E11.27308
G1 X123.608 Y115.141 E11.28514
G1 X123.293 Y114.967 E11.29711
G1 X122.942 Y114.832 E11.30962
G1 X122.517 Y114.724 E11.32421
G1 X122.064 Y114.701 E11.33929
G1 X121.608 Y114.738 E11.35451
G1 X121.189 Y114.857 E11.369
G1 X120.751 Y115.04 E11.38478
G1 X120.381 Y115.292 E11.39967
G1 X120.044 Y115.594 E11.41472
G1 X119.713 Y116.027 E11.43285
G1 X119.473 Y116.517 E11.451
G1 X119.357 Y116.956 E11.4661
G1 X119.309 Y117.315 E11.47815
G1 X119.309 Y117.501 E11.48433
G1 X119.309 Y117.682 E11.49035
G1 X119.355 Y118.032 E11.5021
G1 X119.467 Y118.466 E11.517
G1 X119.705 Y118.96 E11.53524
G1 X120.036 Y119.396 E11.55345
G1 X120.372 Y119.7 E11.56852
G1 X120.671 Y119.905 E11.58058
G1 X121.073 Y120.111 E11.5956
G1 X121.513 Y120.237 E11.61082
G1 X121.964 Y120.304 E11.62599
G0 F6000 X122.003 Y119.541
;TYPE:SKIN
G1 F1200 X122.392 Y119.521 E11.63894
G1 X122.689 Y119.448 E11.64912
G1 X122.962 Y119.344 E11.65883
G1 X123.197 Y119.218 E11.6677
G1 X123.401 Y119.069 E11.6761
G1 X123.648 Y118.833 E11.68747
G1 X123.871 Y118.519 E11.70027
G1 X124.013 Y118.208 E11.71165
G1 X124.104 Y117.899 E11.72236
G1 X124.144 Y117.498 E11.73576
G1 X124.106 Y117.114 E11.7486
G1 X124.011 Y116.79 E11.75983
G1 X123.875 Y116.488 E11.77084
G1 X123.654 Y116.174 E11.78361
G1 X123.408 Y115.937 E11.79498
G1 X123.198 Y115.784 E11.80362
G1 X122.971 Y115.659 E11.81224
G1 X122.697 Y115.556 E11.82197
G1 X122.399 Y115.48 E11.8322
G1 X122.075 Y115.463 E11.84299
G1 X121.746 Y115.49 E11.85397
G1 X121.454 Y115.572 E11.86406
G1 X121.117 Y115.712 E11.8762
G1 X120.849 Y115.893 E11.88695
G1 X120.607 Y116.112 E11.89781
G1 X120.362 Y116.432 E11.91121
G1 X120.188 Y116.787 E11.92436
G1 X120.105 Y117.106 E11.93533
G1 X120.069 Y117.368 E11.94412
G1 X120.069 Y117.634 E11.95297
G1 X120.104 Y117.885 E11.9614
G1 X120.184 Y118.202 E11.97227
G1 X120.359 Y118.562 E11.98559
G1 X120.602 Y118.881 E11.99892
G1 X120.842 Y119.1 E12.00973
G1 X121.059 Y119.248 E12.01847
G1 X121.352 Y119.399 E12.02943
G1 X121.675 Y119.492 E12.04061
G1 X122.003 Y119.541 E12.05164
G0 F6000 X121.962 Y119.798
G0 X121.082 Y119.485
G0 X120.452 Y119.016
G0 X119.918 Y118.214
G0 X120.363 Y118.1
G1 F1200 X121.494 Y119.231 E12.10484
G0 F6000 X122.16 Y119.332
G1 F1200 X120.268 Y117.439 E12.19386
G0 F6000 X120.35 Y116.956
G1 F1200 X122.644 Y119.25 E12.30176
G0 F6000 X123.027 Y119.067
G1 F1200 X120.52 Y116.56 E12.41968
G0 F6000 X120.764 Y116.239
G1 F1200 X123.357 Y118.832 E12.54165
G0 F6000 X123.619 Y118.528
