;FLAVOR:Marlin
;TIME:3538
;Filament used: 1.7462m
;Layer height: 0.2
;MINX:85.197
;MINY:83.32
;MINZ:0.2
;MAXX:151.746
;MAXY:150.926
;MAXZ:10.8
;Generated with Cura_SteamEngine 5.2.1
M140 S50
M105
M190 S50
M104 S200
M105
M109 S200
M82 ;absolute extrusion mode
; Ender 3 Custom Start G-code
G92 E0 ; Reset Extruder
G28 ; Home all axes
G1 Z2.0 F3000 ; Move Z Axis up little to prevent scratching of Heat Bed
G1 X0.1 Y20 Z0.3 F5000.0 ; Move to start position
G1 X0.1 Y200.0 Z0.3 F1500.0 E15 ; Draw the first line
G1 X0.4 Y200.0 Z0.3 F5000.0 ; Move to side a little
G1 X0.4 Y20 Z0.3 F1500.0 E30 ; Draw the second line
G92 E0 ; Reset Extruder
G1 Z2.0 F3000 ; Move Z Axis up little to prevent scratching of Heat Bed
G1 X5 Y20 Z0.3 F5000.0 ; Move over to prevent blob squish
G92 E0
G92 E0
G1 F2700 E-5
;LAYER_COUNT:54
;LAYER:0
M107
G0 F6000 X95.78 Y91.968 Z0.2
;TYPE:SKIRT
G1 F2700 E0
G1 F1200 X96.432 Y91.294 E0.03119
G1 X97.495 Y90.405 E0.07728
G1 X98.045 Y90.001 E0.09998
G1 X98.824 Y89.478 E0.13119
G1 X99.814 Y88.941 E0.16864
G1 X100.199 Y88.757 E0.18284
G1 X101.931 Y87.961 E0.24624
G1 X104.209 Y86.838 E0.33071
G1 X107.043 Y85.33 E0.43748
G1 X107.889 Y84.925 E0.46868
G1 X108.766 Y84.594 E0.49986
G1 X109.802 Y84.308 E0.5356
G1 X110.362 Y84.184 E0.55468
G1 X112.14 Y83.818 E0.61506
G1 X112.893 Y83.69 E0.64046
G1 X113.919 Y83.553 E0.67489
G1 X115.138 Y83.406 E0.71573
G1 X116.267 Y83.329 E0.75336
G1 X116.794 Y83.32 E0.77089
G1 X117.401 Y83.324 E0.79108
G1 X118.338 Y83.382 E0.82231
G1 X118.894 Y83.454 E0.84095
G1 X121.872 Y83.884 E0.94103
G1 X124.506 Y84.184 E1.0292
G1 X125.354 Y84.269 E1.05755
G1 X126.283 Y84.403 E1.08877
G1 X127.196 Y84.615 E1.11994
G1 X128.088 Y84.904 E1.15113
G1 X128.653 Y85.132 E1.17139
G1 X129.352 Y85.437 E1.19676
G1 X131.733 Y86.434 E1.28261
G1 X133.188 Y86.994 E1.33447
G1 X133.838 Y87.253 E1.35774
G1 X134.694 Y87.637 E1.38894
G1 X135.514 Y88.093 E1.42015
G1 X136.101 Y88.479 E1.44352
G1 X136.818 Y88.991 E1.47282
G1 X139.483 Y90.995 E1.58372
G1 X140.208 Y91.59 E1.61492
G1 X140.762 Y92.122 E1.64046
G1 X142.596 Y94.01 E1.72801
G1 X143.303 Y94.812 E1.76357
G1 X143.687 Y95.293 E1.78404
G1 X144.836 Y96.777 E1.84646
G1 X145.446 Y97.65 E1.88189
G1 X146.534 Y99.38 E1.94986
G1 X146.983 Y100.165 E1.97994
G1 X147.382 Y100.936 E2.00881
G1 X147.714 Y101.601 E2.03353
G1 X148.464 Y103.059 E2.08807
G1 X148.729 Y103.594 E2.10792
G1 X149.2 Y104.703 E2.148
G1 X149.426 Y105.34 E2.17048
G1 X150.259 Y107.865 E2.25891
G1 X150.463 Y108.459 E2.2798
G1 X150.73 Y109.358 E2.31099
G1 X150.86 Y109.939 E2.33079
G1 X151.038 Y110.853 E2.36177
G1 X151.216 Y111.716 E2.39107
G1 X151.368 Y112.513 E2.41806
G1 X151.527 Y113.704 E2.45802
G1 X151.712 Y116.067 E2.53686
G1 X151.746 Y117.025 E2.56874
G1 X151.735 Y118.242 E2.60922
G1 X151.722 Y118.676 E2.62366
G1 X151.666 Y119.792 E2.66083
G1 X151.599 Y120.783 E2.69386
G1 X151.499 Y121.692 E2.72428
G1 X151.375 Y122.448 E2.74976
G1 X151.15 Y123.577 E2.78805
G1 X150.718 Y125.495 E2.85344
G1 X150.52 Y126.248 E2.87934
G1 X150.319 Y126.916 E2.90254
G1 X149.848 Y128.405 E2.95448
G1 X149.527 Y129.365 E2.98815
G1 X149.354 Y129.846 E3.00515
G1 X148.95 Y130.886 E3.04226
G1 X148.535 Y131.822 E3.07631
G1 X147.834 Y133.222 E3.12839
G1 X147.492 Y133.884 E3.15317
G1 X146.932 Y134.845 E3.19016
G1 X146.219 Y135.938 E3.23357
G1 X145.783 Y136.559 E3.25881
G1 X144.164 Y138.702 E3.34814
G1 X143.567 Y139.425 E3.37932
G1 X142.95 Y140.058 E3.40872
G1 X141.813 Y141.134 E3.46079
G1 X140.564 Y142.282 E3.51721
G1 X140.196 Y142.605 E3.5335
G1 X138.969 Y143.636 E3.5868
G1 X138.46 Y144.039 E3.6084
G1 X137.737 Y144.577 E3.63837
G1 X137.049 Y145.049 E3.66612
G1 X135.795 Y145.842 E3.71547
G1 X134.876 Y146.406 E3.75133
G1 X134.596 Y146.562 E3.76199
G1 X133.474 Y147.221 E3.80527
G1 X132.646 Y147.661 E3.83646
G1 X132.083 Y147.911 E3.85695
G1 X131.565 Y148.122 E3.87555
G1 X129.98 Y148.742 E3.93216
G1 X129.272 Y148.992 E3.95713
G1 X127.058 Y149.688 E4.03432
G1 X126.119 Y149.938 E4.06664
G1 X123.966 Y150.411 E4.13996
G1 X122.583 Y150.623 E4.18649
G1 X119.758 Y150.875 E4.28082
G1 X118.877 Y150.919 E4.31016
G1 X118.079 Y150.926 E4.33671
G1 X117.505 Y150.916 E4.3558
G1 X114.747 Y150.796 E4.44762
G1 X113.554 Y150.714 E4.48739
G1 X112.283 Y150.607 E4.52981
G1 X111.428 Y150.545 E4.55833
G1 X110.497 Y150.437 E4.5895
G1 X109.577 Y150.251 E4.62072
G1 X108.677 Y149.987 E4.65191
G1 X107.803 Y149.648 E4.68309
G1 X106.722 Y149.101 E4.72339
G1 X106.202 Y148.801 E4.74336
G1 X104.781 Y147.955 E4.79836
G1 X102.607 Y146.742 E4.88116
G1 X99.937 Y145.354 E4.98125
G1 X99.118 Y144.896 E5.01246
G1 X98.58 Y144.543 E5.03386
G1 X97.984 Y144.126 E5.05805
G1 X97.239 Y143.556 E5.08925
G1 X96.546 Y142.925 E5.12043
G1 X95.908 Y142.237 E5.15163
G1 X95.327 Y141.49 E5.18311
G1 X94.816 Y140.769 E5.2125
G1 X94.077 Y139.694 E5.25589
G1 X92.574 Y137.632 E5.34076
G1 X90.992 Y135.591 E5.42665
G1 X90.358 Y134.796 E5.46047
G1 X89.805 Y134.039 E5.49165
G1 X89.171 Y132.959 E5.5333
G1 X88.892 Y132.414 E5.55366
G1 X88.074 Y130.768 E5.6148
G1 X87.058 Y128.847 E5.68708
G1 X86.655 Y128 E5.71827
G1 X86.344 Y127.176 E5.74757
G1 X86.132 Y126.539 E5.7699
G1 X85.874 Y125.637 E5.8011
G1 X85.663 Y124.499 E5.8396
G1 X85.484 Y123.135 E5.88535
G1 X85.452 Y122.938 E5.89199
G1 X85.31 Y121.839 E5.92885
G1 X85.212 Y120.562 E5.97144
G1 X85.197 Y119.762 E5.99806
G1 X85.205 Y118.898 E6.0268
G1 X85.26 Y117.962 E6.05798
G1 X85.363 Y117.214 E6.08309
G1 X85.877 Y114.239 E6.18351
G1 X86.229 Y111.763 E6.26669
G1 X86.51 Y109.28 E6.3498
G1 X86.744 Y106.513 E6.44216
G1 X86.863 Y105.583 E6.47334
G1 X87.182 Y104.233 E6.51948
G1 X87.32 Y103.78 E6.53523
G1 X87.519 Y103.183 E6.55616
G1 X87.864 Y102.311 E6.58735
G1 X88.282 Y101.472 E6.61853
G1 X88.769 Y100.67 E6.64974
G1 X89.324 Y99.914 E6.68093
G1 X89.66 Y99.513 E6.69833
G1 X90.002 Y99.125 E6.71553
G1 X91.661 Y97.195 E6.80018
G1 X93.251 Y95.238 E6.88405
G1 X94.77 Y93.257 E6.96708
G1 X95.188 Y92.696 E6.99034
G1 X95.78 Y91.968 E7.02155
G0 F6000 X96.09 Y92.221
G1 F1200 X96.732 Y91.561 E7.05218
G1 X97.732 Y90.727 E7.09549
G1 X98.282 Y90.323 E7.11818
G1 X99.047 Y89.811 E7.1488
G1 X99.986 Y89.302 E7.18433
G1 X100.521 Y89.048 E7.20402
G1 X102.126 Y88.312 E7.26275
G1 X104.382 Y87.199 E7.34642
G1 X107.231 Y85.683 E7.45376
G1 X108.061 Y85.287 E7.48435
G1 X108.924 Y84.963 E7.51501
G1 X109.89 Y84.698 E7.54832
G1 X110.443 Y84.576 E7.56716
G1 X112.221 Y84.21 E7.62753
G1 X112.946 Y84.086 E7.652
G1 X113.824 Y83.968 E7.68146
G1 X115.186 Y83.803 E7.72709
G1 X116.274 Y83.729 E7.76336
G1 X116.801 Y83.72 E7.78089
G1 X117.394 Y83.724 E7.80062
G1 X118.313 Y83.781 E7.83124
G1 X118.832 Y83.849 E7.84865
G1 X119.29 Y83.921 E7.86407
G1 X121.837 Y84.284 E7.94964
G1 X124.422 Y84.577 E8.03617
G1 X125.314 Y84.667 E8.06599
G1 X126.225 Y84.799 E8.09661
G1 X127.122 Y85.009 E8.12725
G1 X127.996 Y85.297 E8.15785
G1 X128.493 Y85.498 E8.17568
G1 X129.22 Y85.815 E8.20206
G1 X131.583 Y86.804 E8.28726
G1 X133.69 Y87.624 E8.36246
G1 X134.53 Y88.002 E8.3931
G1 X135.333 Y88.452 E8.42372
G1 X135.87 Y88.806 E8.44511
G1 X136.578 Y89.311 E8.47403
G1 X139.243 Y91.315 E8.58493
G1 X139.954 Y91.9 E8.61556
G1 X140.475 Y92.401 E8.6396
G1 X142.309 Y94.289 E8.72714
G1 X142.99 Y95.062 E8.76141
G1 X143.475 Y95.671 E8.7873
G1 X144.519 Y97.021 E8.84406
G1 X145.107 Y97.863 E8.87822
G1 X146.195 Y99.593 E8.94619
G1 X146.628 Y100.349 E8.97517
G1 X147.024 Y101.114 E9.00382
G1 X147.378 Y101.822 E9.03015
G1 X148.108 Y103.242 E9.08325
G1 X148.37 Y103.771 E9.10289
G1 X148.824 Y104.839 E9.14149
G1 X149.046 Y105.465 E9.16358
G1 X149.872 Y107.971 E9.25134
G1 X150.085 Y108.589 E9.27308
G1 X150.346 Y109.472 E9.30371
G1 X150.467 Y110.015 E9.32221
G1 X150.645 Y110.932 E9.35328
G1 X150.824 Y111.797 E9.38266
G1 X150.975 Y112.587 E9.40941
G1 X151.129 Y113.736 E9.44797
G1 X151.314 Y116.099 E9.5268
G1 X151.346 Y117.022 E9.55752
G1 X151.335 Y118.239 E9.598
G1 X151.323 Y118.657 E9.61191
G1 X151.279 Y119.564 E9.64211
G1 X151.2 Y120.756 E9.68184
G1 X151.104 Y121.632 E9.71115
G1 X150.982 Y122.371 E9.73606
G1 X150.76 Y123.489 E9.77397
G1 X150.328 Y125.407 E9.83936
G1 X150.137 Y126.132 E9.8643
G1 X149.89 Y126.95 E9.89272
G1 X149.467 Y128.284 E9.93927
G1 X149.148 Y129.238 E9.97272
G1 X148.981 Y129.701 E9.9891
G1 X148.577 Y130.741 E10.0262
G1 X148.177 Y131.643 E10.05902
G1 X147.479 Y133.038 E10.1109
G1 X147.137 Y133.7 E10.13569
G1 X146.597 Y134.626 E10.17134
G1 X145.884 Y135.719 E10.21474
G1 X145.464 Y136.318 E10.23908
G1 X143.845 Y138.461 E10.32841
G1 X143.258 Y139.17 E10.35902
G1 X142.675 Y139.768 E10.3868
G1 X141.657 Y140.732 E10.43343
G1 X140.293 Y141.987 E10.49508
G1 X139.939 Y142.298 E10.51075
G1 X138.712 Y143.329 E10.56406
G1 X138.221 Y143.718 E10.58489
G1 X137.498 Y144.256 E10.61486
G1 X136.835 Y144.711 E10.64161
G1 X135.451 Y145.585 E10.69605
G1 X134.667 Y146.065 E10.72663
G1 X134.39 Y146.219 E10.73717
G1 X133.271 Y146.876 E10.78033
G1 X132.458 Y147.308 E10.81095
G1 X131.931 Y147.541 E10.83011
G1 X131.419 Y147.75 E10.84851
G1 X129.834 Y148.37 E10.90511
G1 X129.152 Y148.61 E10.92916
G1 X126.938 Y149.306 E11.00635
G1 X126.034 Y149.547 E11.03747
G1 X123.881 Y150.02 E11.11078
G1 X122.548 Y150.225 E11.15564
G1 X119.723 Y150.477 E11.24997
G1 X118.874 Y150.519 E11.27825
G1 X118.076 Y150.526 E11.30479
G1 X117.522 Y150.516 E11.32322
G1 X114.764 Y150.396 E11.41504
G1 X113.588 Y150.315 E11.45424
G1 X112.345 Y150.21 E11.49573
G1 X111.457 Y150.146 E11.52534
G1 X110.542 Y150.04 E11.55598
G1 X109.641 Y149.855 E11.58657
G1 X108.758 Y149.592 E11.61722
G1 X107.902 Y149.254 E11.64783
G1 X106.922 Y148.755 E11.6844
G1 X106.271 Y148.378 E11.70943
G1 X104.975 Y147.605 E11.75962
G1 X102.78 Y146.381 E11.84321
G1 X100.117 Y144.996 E11.94304
G1 X99.313 Y144.547 E11.97367
G1 X98.809 Y144.215 E11.99374
G1 X98.213 Y143.798 E12.01794
G1 X97.483 Y143.238 E12.04854
G1 X96.803 Y142.617 E12.07917
G1 X96.18 Y141.939 E12.10979
G1 X95.653 Y141.258 E12.13843
G1 X95.146 Y140.543 E12.16758
G1 X94.386 Y139.437 E12.21222
G1 X92.914 Y137.419 E12.29529
G1 X91.302 Y135.338 E12.38285
G1 X90.671 Y134.547 E12.4165
G1 X90.129 Y133.803 E12.44712
G1 X89.527 Y132.776 E12.48671
G1 X89.25 Y132.236 E12.5069
G1 X88.421 Y130.566 E12.56891
G1 X87.412 Y128.66 E12.64064
G1 X87.017 Y127.828 E12.67127
G1 X86.723 Y127.049 E12.69896
G1 X86.511 Y126.412 E12.72129
G1 X86.259 Y125.527 E12.7519
G1 X86.059 Y124.446 E12.78846
G1 X85.707 Y121.785 E12.87774
G1 X85.612 Y120.555 E12.91877
G1 X85.597 Y119.755 E12.94538
G1 X85.605 Y118.905 E12.97365
G1 X85.66 Y117.986 E13.00427
G1 X85.758 Y117.282 E13.02792
G1 X86.268 Y114.325 E13.12772
G1 X86.624 Y111.832 E13.21148
G1 X86.912 Y109.287 E13.29666
G1 X87.143 Y106.547 E13.38812
G1 X87.26 Y105.634 E13.41873
G1 X87.565 Y104.35 E13.46263
G1 X87.703 Y103.897 E13.47838
G1 X87.897 Y103.314 E13.49882
G1 X88.236 Y102.459 E13.52941
G1 X88.648 Y101.635 E13.56005
G1 X89.13 Y100.851 E13.59066
G1 X89.96 Y99.778 E13.63578
G1 X90.266 Y99.431 E13.65116
G1 X91.958 Y97.462 E13.73751
G1 X93.562 Y95.488 E13.82211
G1 X95.123 Y93.452 E13.90744
G1 X95.509 Y92.935 E13.9289
G1 X96.09 Y92.221 E13.95952
G0 F6000 X96.401 Y92.474
G1 F1200 X97.032 Y91.828 E13.98955
G1 X97.969 Y91.049 E14.03008
G1 X98.519 Y90.645 E14.05278
G1 X99.269 Y90.144 E14.08278
G1 X100.159 Y89.663 E14.11642
G1 X100.544 Y89.479 E14.13062
G1 X102.291 Y88.676 E14.19457
G1 X104.555 Y87.56 E14.27852
G1 X107.419 Y86.036 E14.38642
G1 X108.234 Y85.648 E14.41644
G1 X109.08 Y85.333 E14.44647
G1 X109.977 Y85.088 E14.4774
G1 X110.523 Y84.967 E14.496
G1 X112.301 Y84.601 E14.55637
G1 X112.999 Y84.483 E14.57992
G1 X114.015 Y84.347 E14.61401
G1 X115.234 Y84.2 E14.65485
G1 X116.281 Y84.128 E14.68976
G1 X116.808 Y84.119 E14.70729
G1 X117.386 Y84.124 E14.72651
G1 X118.288 Y84.181 E14.75657
G1 X121.772 Y84.678 E14.87362
G1 X124.415 Y84.979 E14.9621
G1 X125.274 Y85.065 E14.99081
G1 X126.168 Y85.195 E15.02086
G1 X127.047 Y85.404 E15.05091
G1 X127.903 Y85.689 E15.08092
G1 X128.333 Y85.865 E15.09637
G1 X129.055 Y86.18 E15.12257
G1 X131.451 Y87.183 E15.20896
G1 X133.542 Y87.996 E15.28358
G1 X134.365 Y88.367 E15.31361
G1 X135.152 Y88.81 E15.34364
G1 X135.64 Y89.133 E15.36311
G1 X136.337 Y89.631 E15.3916
G1 X139.002 Y91.635 E15.5025
G1 X139.699 Y92.209 E15.53254
G1 X140.188 Y92.68 E15.55512
G1 X142.022 Y94.568 E15.64266
G1 X142.677 Y95.311 E15.67561
G1 X143.159 Y95.916 E15.70133
G1 X144.203 Y97.266 E15.75809
G1 X144.768 Y98.076 E15.79094
G1 X145.856 Y99.806 E15.85892
G1 X146.273 Y100.533 E15.88679
G1 X146.592 Y101.147 E15.9098
G1 X147.021 Y102.005 E15.94171
G1 X147.836 Y103.591 E16.00102
G1 X148.011 Y103.947 E16.01421
G1 X148.448 Y104.975 E16.05136
G1 X148.666 Y105.59 E16.07307
G1 X149.475 Y108.045 E16.15904
G1 X149.707 Y108.719 E16.18275
G1 X149.962 Y109.585 E16.21277
G1 X150.074 Y110.092 E16.23004
G1 X150.242 Y110.958 E16.25938
G1 X150.432 Y111.878 E16.29063
G1 X150.582 Y112.662 E16.31718
G1 X150.73 Y113.767 E16.35426
G1 X150.915 Y116.13 E16.43309
G1 X150.946 Y117.018 E16.46264
G1 X150.935 Y118.235 E16.50312
G1 X150.923 Y118.637 E16.5165
G1 X150.868 Y119.738 E16.55317
G1 X150.801 Y120.729 E16.5862
G1 X150.708 Y121.572 E16.61441
G1 X150.59 Y122.295 E16.63877
G1 X150.37 Y123.401 E16.67628
G1 X149.938 Y125.319 E16.74167
G1 X149.754 Y126.017 E16.76568
G1 X149.509 Y126.829 E16.79389
G1 X149.086 Y128.163 E16.84044
G1 X148.769 Y129.111 E16.87368
G1 X148.608 Y129.556 E16.88942
G1 X148.204 Y130.596 E16.92653
G1 X147.819 Y131.465 E16.95814
G1 X147.123 Y132.855 E17.00985
G1 X146.781 Y133.517 E17.03463
G1 X146.262 Y134.408 E17.06893
G1 X145.549 Y135.501 E17.11233
G1 X145.145 Y136.077 E17.13573
G1 X143.526 Y138.22 E17.22506
G1 X142.95 Y138.915 E17.25508
G1 X142.4 Y139.477 E17.28124
G1 X141.271 Y140.545 E17.33293
G1 X140.022 Y141.693 E17.38935
G1 X139.682 Y141.992 E17.40441
G1 X138.455 Y143.023 E17.45772
G1 X137.982 Y143.397 E17.47777
G1 X137.259 Y143.935 E17.50775
G1 X136.622 Y144.373 E17.53346
G1 X135.368 Y145.166 E17.58281
G1 X134.458 Y145.724 E17.61831
G1 X134.191 Y145.872 E17.62846
G1 X133.069 Y146.531 E17.67174
G1 X132.27 Y146.954 E17.70181
G1 X131.779 Y147.171 E17.71967
G1 X131.274 Y147.377 E17.73781
G1 X129.689 Y147.997 E17.79441
G1 X129.032 Y148.229 E17.81759
G1 X126.818 Y148.925 E17.89478
G1 X125.948 Y149.156 E17.92472
G1 X123.795 Y149.629 E17.99803
G1 X122.512 Y149.827 E18.04121
G1 X119.687 Y150.079 E18.13554
G1 X118.87 Y150.119 E18.16275
G1 X118.072 Y150.126 E18.18929
G1 X117.54 Y150.116 E18.20699
G1 X114.782 Y149.996 E18.29881
G1 X113.621 Y149.917 E18.33751
G1 X112.322 Y149.807 E18.38087
G1 X111.486 Y149.747 E18.40875
G1 X110.589 Y149.642 E18.43879
G1 X109.705 Y149.458 E18.46882
G1 X108.84 Y149.197 E18.49887
G1 X108.002 Y148.86 E18.52891
G1 X107.122 Y148.408 E18.56182
G1 X106.476 Y148.034 E18.58664
G1 X105.195 Y147.27 E18.63625
G1 X102.953 Y146.02 E18.72163
G1 X100.297 Y144.639 E18.8212
G1 X99.509 Y144.198 E18.85123
G1 X99.039 Y143.887 E18.86997
G1 X98.443 Y143.47 E18.89417
G1 X97.726 Y142.921 E18.9242
G1 X97.061 Y142.309 E18.95426
G1 X96.453 Y141.642 E18.98428
G1 X95.979 Y141.027 E19.01011
G1 X95.572 Y140.455 E19.03345
G1 X94.735 Y139.238 E19.08258
G1 X93.225 Y137.168 E19.1678
G1 X91.585 Y135.05 E19.2569
G1 X90.984 Y134.297 E19.28894
G1 X90.452 Y133.567 E19.31898
G1 X89.882 Y132.594 E19.35649
G1 X88.783 Y130.396 E19.43822
G1 X87.766 Y128.473 E19.51058
G1 X87.379 Y127.657 E19.54061
G1 X87.103 Y126.923 E19.5667
G1 X86.891 Y126.286 E19.58903
G1 X86.644 Y125.417 E19.61907
G1 X86.456 Y124.394 E19.65367
G1 X86.271 Y122.979 E19.70113
G1 X86.247 Y122.844 E19.70569
G1 X86.103 Y121.731 E19.74302
G1 X86.012 Y120.547 E19.78252
G1 X85.996 Y119.383 E19.82123
G1 X86.004 Y118.912 E19.8369
G1 X86.06 Y118.01 E19.86696
G1 X86.152 Y117.35 E19.88912
G1 X86.664 Y114.384 E19.98923
G1 X87.023 Y111.862 E20.07396
G1 X87.306 Y109.365 E20.15754
G1 X87.541 Y106.581 E20.25047
G1 X87.657 Y105.685 E20.28052
G1 X87.948 Y104.467 E20.32217
G1 X88.086 Y104.014 E20.33792
G1 X88.275 Y103.445 E20.35786
G1 X88.608 Y102.606 E20.38788
G1 X89.014 Y101.8 E20.4179
G1 X89.491 Y101.032 E20.44797
G1 X90.26 Y100.042 E20.48966
G1 X90.602 Y99.654 E20.50687
G1 X92.274 Y97.709 E20.59218
G1 X93.857 Y95.76 E20.67569
G1 X95.441 Y93.695 E20.76225
G1 X95.829 Y93.174 E20.78385
