;FLAVOR:Marlin
;TIME:12098
;Filament used: 9.75704m
;Layer height: 0.2
;MINX:50.593
;MINY:51.474
;MINZ:0.2
;MAXX:192.76
;MAXY:207.119
;MAXZ:8
;Generated with Cura_SteamEngine 5.2.1
M140 S50
M105
M190 S50
M104 S200
M105
M109 S200
M82 ;absolute extrusion mode
; Ender 3 Custom Start G-code
G92 E0 ; Reset Extruder
G28 ; Home all axes
G1 Z2.0 F3000 ; Move Z Axis up little to prevent scratching of Heat Bed
G1 X0.1 Y20 Z0.3 F5000.0 ; Move to start position
G1 X0.1 Y200.0 Z0.3 F1500.0 E15 ; Draw the first line
G1 X0.4 Y200.0 Z0.3 F5000.0 ; Move to side a little
G1 X0.4 Y20 Z0.3 F1500.0 E30 ; Draw the second line
G92 E0 ; Reset Extruder
G1 Z2.0 F3000 ; Move Z Axis up little to prevent scratching of Heat Bed
G1 X5 Y20 Z0.3 F5000.0 ; Move over to prevent blob squish
G92 E0
G92 E0
G1 F2700 E-5
;LAYER_COUNT:40
;LAYER:0
M107
G0 F6000 X62.265 Y60.597 Z0.2
;TYPE:SKIRT
G1 F2700 E0
G1 F1200 X62.627 Y60.228 E0.01719
G1 X63.395 Y59.481 E0.05283
G1 X63.819 Y59.09 E0.07201
G1 X64.542 Y58.457 E0.10397
G1 X64.963 Y58.106 E0.1222
G1 X65.734 Y57.496 E0.1549
G1 X66.171 Y57.168 E0.17307
G1 X66.921 Y56.633 E0.20372
G1 X67.319 Y56.362 E0.21973
G1 X67.949 Y55.953 E0.24471
G1 X68.428 Y55.659 E0.26341
G1 X69.373 Y55.112 E0.29972
G1 X69.867 Y54.843 E0.31843
G1 X70.468 Y54.535 E0.34089
G1 X70.889 Y54.33 E0.35647
G1 X71.7 Y53.957 E0.38616
G1 X72.076 Y53.793 E0.3998
G1 X72.612 Y53.574 E0.41906
G1 X73.406 Y53.268 E0.44736
G1 X73.878 Y53.098 E0.46405
G1 X74.456 Y52.905 E0.48431
G1 X75.104 Y52.704 E0.50688
G1 X76.107 Y52.424 E0.54152
G1 X76.662 Y52.286 E0.56054
G1 X77.661 Y52.066 E0.59456
G1 X78.208 Y51.96 E0.61309
G1 X79.073 Y51.815 E0.64226
G1 X79.564 Y51.745 E0.65876
G1 X80.386 Y51.645 E0.6863
G1 X80.868 Y51.597 E0.70241
G1 X81.711 Y51.532 E0.73053
G1 X82.221 Y51.504 E0.74752
G1 X83.17 Y51.475 E0.7791
G1 X83.79 Y51.474 E0.79972
G1 X85.222 Y51.511 E0.84736
G1 X86.113 Y51.558 E0.87704
G1 X86.597 Y51.597 E0.89319
G1 X87.451 Y51.686 E0.92175
G1 X88.014 Y51.76 E0.94064
G1 X89.386 Y51.975 E0.98683
G1 X89.808 Y52.049 E1.00108
G1 X90.89 Y52.262 E1.03775
G1 X91.477 Y52.394 E1.05776
G1 X92.452 Y52.642 E1.09123
G1 X93.667 Y52.983 E1.1332
G1 X94.132 Y53.126 E1.14938
G1 X95.79 Y53.681 E1.20753
G1 X96.514 Y53.946 E1.23317
G1 X96.91 Y54.1 E1.24731
G1 X98.312 Y54.68 E1.29777
G1 X99.638 Y55.275 E1.34611
G1 X100.723 Y55.807 E1.3863
G1 X101.909 Y56.421 E1.43072
G1 X103.09 Y57.08 E1.4757
G1 X103.713 Y57.444 E1.4997
G1 X104.529 Y57.936 E1.53139
G1 X105.381 Y58.477 E1.56496
G1 X106.347 Y59.115 E1.60346
G1 X107.383 Y59.819 E1.64513
G1 X109.519 Y61.227 E1.73022
G1 X111.689 Y62.571 E1.81511
G1 X113.846 Y63.824 E1.89808
G1 X116.05 Y65.023 E1.98153
G1 X118.309 Y66.169 E2.06578
G1 X120.582 Y67.243 E2.14939
G1 X122.889 Y68.255 E2.23318
G1 X125.249 Y69.21 E2.31786
G1 X127.582 Y70.079 E2.40067
G1 X129.969 Y70.892 E2.48454
G1 X132.341 Y71.626 E2.56712
G1 X134.809 Y72.313 E2.65233
G1 X137.249 Y72.918 E2.73594
G1 X139.712 Y73.457 E2.8198
G1 X142.147 Y73.916 E2.90221
G1 X144.656 Y74.318 E2.98673
G1 X147.145 Y74.643 E3.07021
G1 X149.689 Y74.904 E3.15527
G1 X151.851 Y75.068 E3.22739
G1 X152.639 Y75.118 E3.25365
G1 X153.982 Y75.287 E3.29867
G1 X154.395 Y75.365 E3.31265
G1 X155.612 Y75.667 E3.35435
G1 X155.999 Y75.787 E3.36783
G1 X156.764 Y76.056 E3.3948
G1 X157.105 Y76.19 E3.40699
G1 X157.666 Y76.429 E3.42727
G1 X157.991 Y76.578 E3.43916
G1 X158.9 Y77.047 E3.47318
G1 X159.509 Y77.398 E3.49656
G1 X160.109 Y77.769 E3.52002
G1 X160.575 Y78.079 E3.53864
G1 X160.974 Y78.358 E3.55483
G1 X161.626 Y78.845 E3.5819
G1 X162.077 Y79.203 E3.60105
G1 X162.512 Y79.567 E3.61991
G1 X162.934 Y79.939 E3.63863
G1 X163.295 Y80.273 E3.65498
G1 X164.308 Y81.259 E3.702
G1 X165.126 Y82.115 E3.74138
G1 X165.743 Y82.802 E3.77209
G1 X166.351 Y83.511 E3.80316
G1 X167.085 Y84.409 E3.84173
G1 X167.823 Y85.36 E3.88177
G1 X168.64 Y86.464 E3.92745
G1 X169.361 Y87.481 E3.96891
G1 X170.159 Y88.659 E4.01624
G1 X170.936 Y89.852 E4.06359
G1 X171.565 Y90.853 E4.10291
G1 X172.192 Y91.88 E4.14293
G1 X172.939 Y93.146 E4.19182
G1 X173.443 Y94.028 E4.22561
G1 X174.212 Y95.406 E4.2781
G1 X174.901 Y96.678 E4.32621
G1 X175.657 Y98.114 E4.38019
G1 X176.205 Y99.184 E4.42017
G1 X177.056 Y100.893 E4.48367
G1 X177.609 Y102.036 E4.5259
G1 X178.422 Y103.764 E4.58942
G1 X178.935 Y104.884 E4.63039
G1 X179.786 Y106.794 E4.69994
G1 X180.195 Y107.737 E4.73413
G1 X181.104 Y109.897 E4.81207
G1 X181.523 Y110.92 E4.84884
G1 X182.368 Y113.045 E4.9249
G1 X182.819 Y114.217 E4.96667
G1 X183.653 Y116.451 E5.04598
G1 X184.014 Y117.444 E5.08112
G1 X184.843 Y119.808 E5.16444
G1 X185.204 Y120.875 E5.20191
G1 X185.952 Y123.157 E5.28178
G1 X186.325 Y124.339 E5.32301
G1 X187.024 Y126.636 E5.40286
G1 X187.336 Y127.7 E5.43974
G1 X188.035 Y130.197 E5.52599
G1 X188.339 Y131.331 E5.56503
G1 X188.967 Y133.791 E5.64948
G1 X189.271 Y135.048 E5.69249
G1 X189.784 Y137.285 E5.76883
G1 X190.081 Y138.649 E5.81526
G1 X190.51 Y140.755 E5.88674
G1 X190.773 Y142.132 E5.93337
G1 X191.183 Y144.454 E6.01179
G1 X191.423 Y145.943 E6.06196
G1 X191.696 Y147.796 E6.12425
G1 X191.921 Y149.497 E6.18132
G1 X192.152 Y151.468 E6.24733
G1 X192.332 Y153.267 E6.30746
G1 X192.461 Y154.786 E6.35816
G1 X192.591 Y156.678 E6.42124
G1 X192.67 Y158.228 E6.47286
G1 X192.743 Y160.504 E6.5486
G1 X192.76 Y161.915 E6.59553
G1 X192.75 Y163.776 E6.65743
G1 X192.709 Y165.453 E6.71322
G1 X192.653 Y166.763 E6.75683
G1 X192.514 Y168.802 E6.82481
G1 X192.42 Y169.926 E6.86232
G1 X192.19 Y171.969 E6.9307
G1 X191.923 Y173.951 E6.99722
G1 X191.723 Y175.173 E7.03841
G1 X191.389 Y176.936 E7.09809
G1 X191.103 Y178.251 E7.14285
G1 X190.631 Y180.152 E7.20799
G1 X190.232 Y181.567 E7.25689
G1 X189.836 Y182.839 E7.3012
G1 X189.369 Y184.205 E7.34922
G1 X188.805 Y185.698 E7.4023
G1 X188.657 Y186.065 E7.41546
G1 X188.066 Y187.446 E7.46542
G1 X187.437 Y188.789 E7.51475
G1 X186.905 Y189.836 E7.55381
G1 X186.703 Y190.214 E7.56806
G1 X186.185 Y191.142 E7.60341
G1 X185.97 Y191.511 E7.61762
G1 X185.436 Y192.386 E7.65171
G1 X185.202 Y192.753 E7.66619
G1 X184.608 Y193.645 E7.70183
G1 X184.351 Y194.014 E7.71679
G1 X183.591 Y195.06 E7.75979
G1 X183.324 Y195.413 E7.77451
G1 X182.914 Y195.932 E7.79651
G1 X182.616 Y196.293 E7.81208
G1 X182 Y197.008 E7.84347
G1 X181.692 Y197.35 E7.85878
G1 X181.081 Y198.002 E7.8885
G1 X180.74 Y198.35 E7.9047
G1 X180.059 Y199.015 E7.93636
G1 X179.663 Y199.384 E7.95436
G1 X178.891 Y200.067 E7.98865
G1 X178.492 Y200.403 E8.00599
G1 X177.876 Y200.898 E8.03228
G1 X177.427 Y201.244 E8.05113
G1 X176.589 Y201.852 E8.08557
G1 X176.201 Y202.118 E8.10121
G1 X175.194 Y202.772 E8.14115
G1 X174.729 Y203.051 E8.15919
G1 X173.979 Y203.482 E8.18796
G1 X173.448 Y203.768 E8.20802
G1 X172.557 Y204.217 E8.2412
G1 X172.129 Y204.422 E8.25699
G1 X171.579 Y204.67 E8.27705
G1 X171.023 Y204.907 E8.29715
G1 X169.94 Y205.328 E8.3358
G1 X169.475 Y205.495 E8.35223
G1 X168.852 Y205.703 E8.37408
G1 X168.295 Y205.877 E8.39349
G1 X167.268 Y206.163 E8.42895
G1 X166.734 Y206.296 E8.44725
G1 X165.724 Y206.52 E8.48166
G1 X165.21 Y206.621 E8.49908
G1 X164.502 Y206.743 E8.52298
G1 X163.996 Y206.818 E8.53999
G1 X162.93 Y206.951 E8.57572
G1 X162.385 Y207.006 E8.59394
G1 X161.62 Y207.063 E8.61945
G1 X161.156 Y207.087 E8.63491
G1 X160.221 Y207.117 E8.66602
G1 X159.576 Y207.119 E8.68747
G1 X158.107 Y207.08 E8.73635
G1 X157.152 Y207.027 E8.76816
G1 X156.691 Y206.989 E8.78355
G1 X155.883 Y206.904 E8.81057
G1 X155.331 Y206.831 E8.82909
G1 X153.997 Y206.622 E8.874
G1 X153.579 Y206.549 E8.88811
G1 X152.444 Y206.326 E8.92659
G1 X151.849 Y206.192 E8.94687
G1 X150.903 Y205.951 E8.97934
G1 X149.284 Y205.491 E9.03532
G1 X148.938 Y205.386 E9.04735
G1 X148.349 Y205.19 E9.06799
G1 X146.927 Y204.679 E9.11825
G1 X146.472 Y204.504 E9.13446
G1 X145.302 Y204.024 E9.17653
G1 X144.049 Y203.473 E9.22205
G1 X143.701 Y203.311 E9.23482
G1 X142.666 Y202.804 E9.27315
G1 X141.488 Y202.195 E9.31726
G1 X141.133 Y202.003 E9.33068
G1 X140.349 Y201.56 E9.36063
G1 X139.531 Y201.083 E9.39213
G1 X138.857 Y200.678 E9.41828
G1 X137.953 Y200.103 E9.45391
G1 X137.152 Y199.574 E9.48584
G1 X136.031 Y198.812 E9.53092
G1 X133.878 Y197.391 E9.61672
G1 X131.713 Y196.048 E9.70146
G1 X129.568 Y194.802 E9.78397
G1 X127.356 Y193.596 E9.86776
G1 X125.099 Y192.448 E9.95198
G1 X122.819 Y191.369 E10.03588
G1 X120.515 Y190.358 E10.11956
G1 X118.197 Y189.417 E10.20277
G1 X115.826 Y188.532 E10.28695
G1 X113.433 Y187.715 E10.37105
G1 X111.047 Y186.975 E10.45414
G1 X108.619 Y186.297 E10.53798
G1 X106.153 Y185.683 E10.62251
G1 X103.71 Y185.147 E10.70569
G1 X101.26 Y184.683 E10.78863
G1 X98.778 Y184.285 E10.87223
G1 X96.242 Y183.95 E10.95732
G1 X93.754 Y183.694 E11.0405
G1 X91.353 Y183.513 E11.12059
G1 X90.71 Y183.473 E11.14202
G1 X89.777 Y183.375 E11.17322
G1 X88.915 Y183.219 E11.20235
G1 X87.755 Y182.929 E11.24212
G1 X87.359 Y182.807 E11.2559
G1 X86.448 Y182.482 E11.28807
G1 X85.876 Y182.249 E11.30862
G1 X85.024 Y181.859 E11.33978
G1 X84.534 Y181.593 E11.35833
G1 X83.845 Y181.196 E11.38478
G1 X83.244 Y180.824 E11.40828
G1 X82.778 Y180.514 E11.4269
G1 X82.382 Y180.237 E11.44297
G1 X81.71 Y179.735 E11.47087
G1 X81.268 Y179.383 E11.48966
G1 X80.851 Y179.033 E11.50777
G1 X80.432 Y178.664 E11.52634
G1 X80.067 Y178.328 E11.54284
G1 X79.315 Y177.603 E11.57758
G1 X79.032 Y177.32 E11.5909
G1 X78.257 Y176.509 E11.62821
G1 X77.53 Y175.699 E11.66441
G1 X76.885 Y174.94 E11.69754
G1 X76.056 Y173.917 E11.74133
G1 X75.545 Y173.254 E11.76917
G1 X74.835 Y172.298 E11.80878
G1 X74.117 Y171.29 E11.84994
G1 X73.24 Y170.001 E11.90179
G1 X72.498 Y168.865 E11.94692
G1 X71.782 Y167.73 E11.99156
G1 X71.092 Y166.597 E12.03568
G1 X70.414 Y165.447 E12.08008
G1 X69.91 Y164.565 E12.11387
G1 X69.146 Y163.196 E12.16601
G1 X68.448 Y161.911 E12.21465
G1 X67.691 Y160.471 E12.26876
G1 X67.096 Y159.307 E12.31224
G1 X66.296 Y157.698 E12.372
G1 X65.749 Y156.568 E12.41376
G1 X64.962 Y154.897 E12.47519
G1 X64.428 Y153.732 E12.51782
G1 X63.567 Y151.8 E12.58817
G1 X63.111 Y150.746 E12.62636
G1 X62.257 Y148.714 E12.69968
G1 X61.814 Y147.633 E12.73853
G1 X60.938 Y145.426 E12.81751
G1 X60.541 Y144.396 E12.85422
G1 X59.734 Y142.237 E12.93088
G1 X59.342 Y141.157 E12.9691
G1 X58.512 Y138.79 E13.05252
G1 X58.149 Y137.719 E13.09014
G1 X57.401 Y135.437 E13.17001
G1 X57.028 Y134.253 E13.2113
G1 X56.33 Y131.959 E13.29105
G1 X55.971 Y130.73 E13.33363
G1 X55.333 Y128.449 E13.41241
G1 X55.008 Y127.235 E13.45421
G1 X54.392 Y124.826 E13.53691
G1 X54.084 Y123.555 E13.58041
G1 X53.563 Y121.284 E13.65791
G1 X53.299 Y120.068 E13.69929
G1 X52.812 Y117.677 E13.78045
G1 X52.557 Y116.337 E13.82582
G1 X52.199 Y114.309 E13.89431
G1 X51.93 Y112.641 E13.95051
G1 X51.634 Y110.626 E14.01825
G1 X51.415 Y108.959 E14.07417
G1 X51.198 Y107.085 E14.13691
G1 X51.022 Y105.335 E14.19541
G1 X50.892 Y103.802 E14.24658
G1 X50.751 Y101.697 E14.31675
G1 X50.673 Y100.112 E14.36953
G1 X50.614 Y98.239 E14.43186
G1 X50.593 Y96.711 E14.48269
G1 X50.604 Y94.786 E14.54671
G1 X50.64 Y93.411 E14.59246
G1 X50.748 Y91.121 E14.66871
G1 X50.83 Y89.911 E14.70905
G1 X50.952 Y88.479 E14.75685
G1 X51.16 Y86.651 E14.81804
G1 X51.439 Y84.585 E14.88738
G1 X51.644 Y83.345 E14.92918
G1 X51.911 Y81.92 E14.97741
G1 X52.314 Y80.066 E15.04051
G1 X52.649 Y78.719 E15.08668
G1 X53.121 Y77.026 E15.14513
G1 X53.631 Y75.407 E15.20159
G1 X54.1 Y74.069 E15.24875
G1 X54.542 Y72.91 E15.29
G1 X54.689 Y72.544 E15.30312
G1 X55.288 Y71.144 E15.35377
G1 X55.766 Y70.113 E15.39157
G1 X56.433 Y68.786 E15.44096
G1 X56.633 Y68.41 E15.45513
G1 X57.172 Y67.444 E15.49192
G1 X57.388 Y67.075 E15.50614
G1 X57.917 Y66.208 E15.53992
G1 X58.148 Y65.845 E15.55423
G1 X58.879 Y64.746 E15.59813
G1 X59.448 Y63.941 E15.63092
G1 X59.717 Y63.582 E15.64584
G1 X60.372 Y62.744 E15.68122
G1 X60.694 Y62.352 E15.69809
G1 X61.326 Y61.616 E15.73036
G1 X61.639 Y61.266 E15.74597
G1 X62.265 Y60.597 E15.77645
G0 F6000 X62.557 Y60.871
G1 F1200 X62.906 Y60.515 E15.79303
G1 X63.674 Y59.768 E15.82866
G1 X64.083 Y59.391 E15.84716
G1 X64.806 Y58.758 E15.87912
G1 X65.211 Y58.42 E15.89667
G1 X65.982 Y57.81 E15.92937
G1 X66.403 Y57.494 E15.94688
G1 X67.153 Y56.959 E15.97752
G1 X67.537 Y56.697 E15.99298
G1 X68.167 Y56.288 E16.01796
G1 X68.629 Y56.005 E16.03598
G1 X69.574 Y55.458 E16.0723
G1 X70.05 Y55.199 E16.09032
G1 X70.651 Y54.891 E16.11278
G1 X71.056 Y54.694 E16.12776
G1 X72.229 Y54.162 E16.1706
G1 X72.756 Y53.947 E16.18953
G1 X73.55 Y53.641 E16.21783
G1 X74.005 Y53.478 E16.23391
G1 X74.583 Y53.285 E16.25418
G1 X75.22 Y53.087 E16.27636
G1 X76.213 Y52.81 E16.31065
G1 X76.748 Y52.677 E16.32899
G1 X77.747 Y52.457 E16.36301
G1 X78.275 Y52.355 E16.3809
G1 X79.14 Y52.21 E16.41007
G1 X79.612 Y52.142 E16.42593
G1 X80.434 Y52.042 E16.45347
G1 X80.899 Y51.995 E16.46901
G1 X81.742 Y51.93 E16.49714
G1 X82.233 Y51.904 E16.51349
G1 X83.182 Y51.875 E16.54507
G1 X83.78 Y51.874 E16.56496
G1 X85.212 Y51.911 E16.6126
G1 X86.089 Y51.957 E16.64181
G1 X86.556 Y51.995 E16.6574
G1 X87.41 Y52.084 E16.68595
G1 X87.952 Y52.155 E16.70413
G1 X89.324 Y52.37 E16.75032
G1 X89.73 Y52.442 E16.76404
G1 X90.812 Y52.655 E16.80072
G1 X91.378 Y52.782 E16.82001
G1 X92.353 Y53.03 E16.85347
G1 X93.558 Y53.368 E16.8951
G1 X94.007 Y53.505 E16.91071
G1 X95.348 Y53.95 E16.9577
G1 X96.376 Y54.322 E16.99406
G1 X96.758 Y54.47 E17.00769
G1 X97.881 Y54.931 E17.04807
G1 X99.116 Y55.474 E17.09294
G1 X99.463 Y55.635 E17.10566
G1 X100.307 Y56.046 E17.13688
G1 X101.725 Y56.777 E17.18994
G1 X102.742 Y57.342 E17.22864
G1 X103.643 Y57.868 E17.26334
G1 X104.552 Y58.421 E17.29873
G1 X105.161 Y58.811 E17.32278
G1 X105.997 Y59.362 E17.35608
G1 X107.143 Y60.14 E17.40215
G1 X109.32 Y61.575 E17.48888
G1 X111.447 Y62.892 E17.57208
G1 X113.655 Y64.175 E17.65702
G1 X115.884 Y65.388 E17.74142
G1 X118.136 Y66.53 E17.8254
G1 X120.416 Y67.607 E17.90927
G1 X122.727 Y68.621 E17.99321
G1 X125.108 Y69.584 E18.07863
G1 X127.45 Y70.457 E18.16177
G1 X129.827 Y71.266 E18.24528
G1 X132.263 Y72.02 E18.33009
G1 X134.677 Y72.692 E18.41344
G1 X137.131 Y73.301 E18.49753
G1 X139.658 Y73.853 E18.58356
G1 X142.082 Y74.311 E18.66561
G1 X144.612 Y74.716 E18.75083
G1 X147.089 Y75.04 E18.83392
G1 X149.617 Y75.299 E18.91844
G1 X151.876 Y75.47 E18.99379
G1 X152.614 Y75.517 E19.01838
G1 X153.908 Y75.68 E19.06176
G1 X154.321 Y75.758 E19.07574
G1 X155.493 Y76.05 E19.11592
G1 X155.88 Y76.17 E19.12939
G1 X156.618 Y76.428 E19.15539
G1 X156.959 Y76.562 E19.16758
G1 X157.5 Y76.792 E19.18713
G1 X157.825 Y76.941 E19.19902
G1 X158.7 Y77.393 E19.23178
G1 X159.309 Y77.744 E19.25516
G1 X159.887 Y78.102 E19.27777
G1 X160.353 Y78.412 E19.29639
G1 X160.738 Y78.681 E19.31201
G1 X161.377 Y79.159 E19.33855
G1 X161.828 Y79.517 E19.3577
G1 X162.247 Y79.867 E19.37586
G1 X162.669 Y80.239 E19.39457
G1 X163.018 Y80.561 E19.41036
G1 X163.746 Y81.263 E19.444
G1 X164.02 Y81.537 E19.45689
G1 X164.829 Y82.384 E19.49585
G1 X165.44 Y83.063 E19.52623
G1 X166.231 Y83.992 E19.56681
G1 X166.934 Y84.862 E19.60401
G1 X167.507 Y85.604 E19.63519
G1 X168.315 Y86.696 E19.68037
G1 X168.898 Y87.515 E19.71381
G1 X169.824 Y88.878 E19.76862
G1 X170.597 Y90.065 E19.81573
G1 X171.146 Y90.937 E19.85
G1 X171.934 Y92.228 E19.90031
G1 X172.519 Y93.22 E19.93861
G1 X173.145 Y94.315 E19.98056
G1 X173.796 Y95.48 E20.02495
G1 X174.547 Y96.864 E20.07732
G1 X175.301 Y98.296 E20.13115
G1 X175.849 Y99.366 E20.17114
G1 X176.696 Y101.067 E20.23434
G1 X177.247 Y102.206 E20.27642
G1 X178.059 Y103.93 E20.3398
G1 X178.57 Y105.047 E20.38066
G1 X179.419 Y106.953 E20.45006
G1 X179.828 Y107.896 E20.48424
G1 X180.734 Y110.048 E20.5619
G1 X181.151 Y111.068 E20.59855
G1 X182.038 Y113.3 E20.67844
G1 X182.444 Y114.357 E20.7161
G1 X183.277 Y116.588 E20.7953
G1 X183.636 Y117.576 E20.83027
G1 X184.464 Y119.936 E20.91345
G1 X184.824 Y120.999 E20.95078
G1 X185.571 Y123.278 E21.03055
G1 X185.91 Y124.351 E21.06798
G1 X186.64 Y126.748 E21.15132
G1 X186.952 Y127.812 E21.18819
G1 X187.649 Y130.301 E21.27416
G1 X187.952 Y131.43 E21.31304
G1 X188.546 Y133.753 E21.39279
G1 X188.881 Y135.138 E21.44019
G1 X189.393 Y137.37 E21.51635
G1 X189.689 Y138.729 E21.56261
G1 X190.118 Y140.835 E21.63409
G1 X190.38 Y142.207 E21.68055
G1 X190.788 Y144.518 E21.75861
G1 X191.027 Y146.001 E21.80857
G1 X191.3 Y147.854 E21.87086
