;FLAVOR:Marlin
;TIME:2454
;Filament used: 1.41194m
;Layer height: 0.2
;MINX:85.663
;MINY:83.548
;MINZ:0.2
;MAXX:149.345
;MAXY:151.451
;MAXZ:7
;Generated with Cura_SteamEngine 5.2.1
M140 S50
M105
M190 S50
M104 S200
M105
M109 S200
M82 ;absolute extrusion mode
; Ender 3 Custom Start G-code
G92 E0 ; Reset Extruder
G28 ; Home all axes
G1 Z2.0 F3000 ; Move Z Axis up little to prevent scratching of Heat Bed
G1 X0.1 Y20 Z0.3 F5000.0 ; Move to start position
G1 X0.1 Y200.0 Z0.3 F1500.0 E15 ; Draw the first line
G1 X0.4 Y200.0 Z0.3 F5000.0 ; Move to side a little
G1 X0.4 Y20 Z0.3 F1500.0 E30 ; Draw the second line
G92 E0 ; Reset Extruder
G1 Z2.0 F3000 ; Move Z Axis up little to prevent scratching of Heat Bed
G1 X5 Y20 Z0.3 F5000.0 ; Move over to prevent blob squish
G92 E0
G92 E0
G1 F2700 E-5
;LAYER_COUNT:35
;LAYER:0
M107
G0 F6000 X103.892 Y92.686 Z0.2
;TYPE:SKIRT
G1 F2700 E0
G1 F1200 X104.321 Y92.24 E0.02058
G1 X104.74 Y91.829 E0.0401
G1 X105.437 Y91.202 E0.07129
G1 X105.91 Y90.832 E0.09126
G1 X108.885 Y88.636 E0.21425
G1 X110.152 Y87.675 E0.26714
G1 X110.866 Y87.16 E0.29642
G1 X111.273 Y86.883 E0.31279
G1 X111.992 Y86.424 E0.34116
G1 X112.77 Y85.965 E0.37121
G1 X113.321 Y85.662 E0.39212
G1 X113.896 Y85.368 E0.4136
G1 X114.57 Y85.056 E0.4383
G1 X115.199 Y84.786 E0.46107
G1 X115.985 Y84.484 E0.48908
G1 X116.363 Y84.355 E0.50236
G1 X117.227 Y84.099 E0.53233
G1 X117.814 Y83.951 E0.55247
G1 X118.745 Y83.758 E0.58409
G1 X119.06 Y83.707 E0.5947
G1 X120.09 Y83.585 E0.6292
G1 X121.053 Y83.548 E0.66125
G1 X121.449 Y83.548 E0.67443
G1 X122.386 Y83.588 E0.70562
G1 X122.902 Y83.644 E0.72288
G1 X123.773 Y83.76 E0.75211
G1 X126.302 Y84.074 E0.83687
G1 X127.317 Y84.167 E0.87077
G1 X127.546 Y84.198 E0.87845
G1 X128.737 Y84.32 E0.91827
G1 X130.047 Y84.536 E0.96243
G1 X130.457 Y84.629 E0.97642
G1 X131.362 Y84.875 E1.00761
G1 X132.047 Y85.118 E1.03178
G1 X132.5 Y85.296 E1.04797
G1 X133.357 Y85.676 E1.07915
G1 X134.179 Y86.127 E1.11034
G1 X135.167 Y86.802 E1.15013
G1 X135.462 Y87.028 E1.16249
G1 X136.181 Y87.63 E1.19368
G1 X136.847 Y88.29 E1.22487
G1 X137.362 Y88.888 E1.25112
G1 X137.59 Y89.173 E1.26326
G1 X138.085 Y89.844 E1.29099
G1 X140.463 Y93.328 E1.43129
G1 X140.88 Y93.986 E1.4572
G1 X141.16 Y94.466 E1.47568
G1 X141.666 Y95.443 E1.51228
G1 X141.885 Y95.923 E1.52982
G1 X142.349 Y97.103 E1.572
G1 X142.658 Y98.17 E1.60894
G1 X142.842 Y99.04 E1.63852
G1 X142.89 Y99.314 E1.64777
G1 X142.995 Y100.063 E1.67293
G1 X143.081 Y100.882 E1.70032
G1 X143.37 Y103.417 E1.78518
G1 X143.729 Y105.945 E1.8701
G1 X144.152 Y108.41 E1.95329
G1 X144.653 Y110.907 E2.03799
G1 X145.204 Y113.309 E2.11996
G1 X145.849 Y115.781 E2.20493
G1 X146.554 Y118.207 E2.28896
G1 X147.028 Y119.711 E2.34141
G1 X147.5 Y121.165 E2.39225
G1 X147.691 Y121.819 E2.41491
G1 X147.76 Y122.087 E2.42412
G1 X147.909 Y122.75 E2.44672
G1 X147.976 Y123.098 E2.4585
G1 X148.086 Y123.79 E2.48181
G1 X148.137 Y124.191 E2.49525
G1 X148.198 Y124.813 E2.51604
G1 X148.25 Y125.563 E2.54105
G1 X148.474 Y128.24 E2.63039
G1 X148.752 Y130.714 E2.7132
G1 X149.162 Y133.568 E2.8091
G1 X149.244 Y134.182 E2.8297
G1 X149.341 Y135.556 E2.87551
G1 X149.345 Y136.094 E2.89341
G1 X149.312 Y137.032 E2.92463
G1 X149.245 Y137.652 E2.94537
G1 X149.172 Y138.191 E2.96346
G1 X149.007 Y139.114 E2.99464
G1 X148.855 Y139.716 E3.01529
G1 X148.707 Y140.238 E3.03334
G1 X148.413 Y141.128 E3.06452
G1 X148.183 Y141.689 E3.08468
G1 X147.967 Y142.177 E3.10243
G1 X147.551 Y143.018 E3.13364
G1 X147.27 Y143.5 E3.15219
G1 X146.998 Y143.941 E3.16943
G1 X146.472 Y144.717 E3.20061
G1 X146.094 Y145.199 E3.22098
G1 X145.709 Y145.662 E3.24101
G1 X145.079 Y146.357 E3.27221
G1 X144.521 Y146.884 E3.29774
G1 X144.144 Y147.216 E3.31444
G1 X143.414 Y147.806 E3.34566
G1 X143.004 Y148.094 E3.36233
G1 X142.563 Y148.39 E3.37999
G1 X141.763 Y148.879 E3.41118
G1 X141.259 Y149.142 E3.43009
G1 X140.79 Y149.371 E3.44745
G1 X139.648 Y149.851 E3.48865
G1 X139.002 Y150.07 E3.51134
G1 X138.685 Y150.168 E3.52237
G1 X137.327 Y150.495 E3.56883
G1 X136.817 Y150.584 E3.58605
G1 X135.583 Y150.728 E3.62737
G1 X134.898 Y150.76 E3.65018
G1 X134.577 Y150.766 E3.66086
G1 X133.384 Y150.724 E3.70056
G1 X132.848 Y150.671 E3.71847
G1 X131.622 Y150.525 E3.75954
G1 X130.824 Y150.419 E3.78631
G1 X128.308 Y150.153 E3.87046
G1 X125.77 Y149.957 E3.95513
G1 X124.179 Y149.872 E4.00812
G1 X121.601 Y149.793 E4.09391
G1 X119.077 Y149.786 E4.17785
G1 X116.589 Y149.851 E4.26063
G1 X114.058 Y149.988 E4.34494
G1 X111.537 Y150.195 E4.42907
G1 X109.077 Y150.469 E4.5114
G1 X105.869 Y150.928 E4.61918
G1 X103.566 Y151.299 E4.69677
G1 X102.196 Y151.433 E4.74255
G1 X101.672 Y151.451 E4.75999
G1 X100.277 Y151.41 E4.80641
G1 X99.717 Y151.358 E4.82511
G1 X98.544 Y151.185 E4.86455
G1 X98.224 Y151.12 E4.87541
G1 X97.685 Y150.996 E4.8938
G1 X97.357 Y150.912 E4.90507
G1 X96.449 Y150.637 E4.93662
G1 X95.941 Y150.459 E4.95452
G1 X94.848 Y150.009 E4.99384
G1 X94.384 Y149.788 E5.01093
G1 X93.616 Y149.385 E5.03978
G1 X93.311 Y149.209 E5.05149
G1 X92.523 Y148.708 E5.08255
G1 X91.996 Y148.341 E5.10391
G1 X91.153 Y147.691 E5.13931
G1 X90.643 Y147.257 E5.16159
G1 X89.955 Y146.62 E5.19277
G1 X89.625 Y146.271 E5.20875
G1 X89.273 Y145.883 E5.22617
G1 X88.522 Y144.959 E5.26577
G1 X88.28 Y144.626 E5.27947
G1 X87.624 Y143.61 E5.31969
G1 X87.345 Y143.121 E5.33842
G1 X86.915 Y142.288 E5.36959
G1 X86.608 Y141.556 E5.396
G1 X86.449 Y141.135 E5.41096
G1 X86.156 Y140.245 E5.44213
G1 X85.952 Y139.4 E5.47104
G1 X85.884 Y139.059 E5.48261
G1 X85.74 Y138.132 E5.51381
G1 X85.678 Y137.267 E5.54265
G1 X85.663 Y136.807 E5.55796
G1 X85.672 Y135.869 E5.58916
G1 X85.769 Y134.885 E5.62204
G1 X85.844 Y134.361 E5.63965
G1 X86.178 Y131.782 E5.72614
G1 X86.519 Y128.21 E5.84549
G1 X86.59 Y127.611 E5.86555
G1 X86.682 Y127.013 E5.88568
G1 X86.765 Y126.56 E5.90099
G1 X87.196 Y124.005 E5.98717
G1 X87.539 Y121.545 E6.06979
G1 X87.821 Y119.004 E6.15482
G1 X87.917 Y117.88 E6.19234
G1 X87.977 Y117.285 E6.21223
G1 X88.112 Y116.357 E6.24342
G1 X88.301 Y115.537 E6.27141
G1 X88.924 Y113.234 E6.35076
G1 X89.303 Y112.085 E6.391
G1 X89.475 Y111.647 E6.40665
G1 X89.855 Y110.79 E6.43783
G1 X90.306 Y109.968 E6.46902
G1 X90.826 Y109.187 E6.50022
G1 X91.259 Y108.631 E6.52366
G1 X91.527 Y108.309 E6.5376
G1 X91.957 Y107.823 E6.55918
G1 X92.535 Y107.206 E6.5873
G1 X94.296 Y105.277 E6.67417
G1 X95.923 Y103.389 E6.75707
G1 X97.515 Y101.434 E6.84092
G1 X99.056 Y99.427 E6.92508
G1 X100.546 Y97.37 E7.00956
G1 X101.819 Y95.509 E7.08455
G1 X102.549 Y94.413 E7.12835
G1 X102.973 Y93.82 E7.1526
G1 X103.29 Y93.406 E7.16994
G1 X103.892 Y92.686 E7.20116
G0 F6000 X104.199 Y92.943
G1 F1200 X104.601 Y92.526 E7.22042
G1 X105.02 Y92.115 E7.23994
G1 X105.705 Y91.499 E7.27058
G1 X106.148 Y91.154 E7.28926
G1 X109.038 Y89.021 E7.40873
G1 X110.393 Y87.993 E7.4653
G1 X111.098 Y87.485 E7.4942
G1 X111.49 Y87.219 E7.50995
G1 X111.91 Y86.947 E7.5266
G1 X112.596 Y86.527 E7.55335
G1 X112.962 Y86.316 E7.5674
G1 X113.513 Y86.013 E7.58832
G1 X114.068 Y85.729 E7.60905
G1 X114.728 Y85.423 E7.63325
G1 X115.357 Y85.153 E7.65601
G1 X116.114 Y84.862 E7.68299
G1 X116.492 Y84.733 E7.69627
G1 X117.325 Y84.487 E7.72516
G1 X117.912 Y84.339 E7.7453
G1 X118.809 Y84.153 E7.77577
G1 X119.124 Y84.102 E7.78638
G1 X120.12 Y83.984 E7.81974
G1 X121.053 Y83.948 E7.85079
G1 X121.449 Y83.948 E7.86396
G1 X122.369 Y83.988 E7.89459
G1 X122.849 Y84.041 E7.91065
G1 X123.664 Y84.15 E7.938
G1 X126.277 Y84.475 E8.02558
G1 X127.281 Y84.566 E8.05911
G1 X127.492 Y84.594 E8.06619
G1 X128.696 Y84.718 E8.10645
G1 X129.959 Y84.926 E8.14902
G1 X130.369 Y85.019 E8.163
G1 X131.257 Y85.261 E8.19362
G1 X131.901 Y85.49 E8.21635
G1 X132.354 Y85.668 E8.23254
G1 X133.195 Y86.042 E8.26315
G1 X134.001 Y86.487 E8.29377
G1 X134.923 Y87.119 E8.33095
G1 X135.218 Y87.345 E8.34331
G1 X135.924 Y87.937 E8.37396
G1 X136.576 Y88.587 E8.40458
G1 X137.049 Y89.138 E8.42873
G1 X137.277 Y89.423 E8.44087
G1 X137.755 Y90.069 E8.4676
G1 X140.133 Y93.553 E8.60789
G1 X140.534 Y94.188 E8.63287
G1 X140.814 Y94.668 E8.65136
G1 X141.302 Y95.609 E8.68661
G1 X141.521 Y96.089 E8.70416
G1 X141.969 Y97.228 E8.74487
G1 X142.27 Y98.265 E8.78078
G1 X142.448 Y99.109 E8.80947
G1 X142.496 Y99.383 E8.81872
G1 X142.597 Y100.105 E8.84297
G1 X142.673 Y100.832 E8.86728
G1 X142.974 Y103.478 E8.95586
G1 X143.337 Y106.031 E9.04162
G1 X143.753 Y108.457 E9.12349
G1 X144.265 Y111.004 E9.2099
G1 X144.813 Y113.394 E9.29145
G1 X145.464 Y115.888 E9.37718
G1 X146.179 Y118.352 E9.46252
G1 X146.619 Y119.745 E9.51111
G1 X147.12 Y121.288 E9.56506
G1 X147.303 Y121.919 E9.58692
G1 X147.372 Y122.187 E9.59612
G1 X147.516 Y122.826 E9.61791
G1 X147.583 Y123.174 E9.62969
G1 X147.689 Y123.841 E9.65216
G1 X147.74 Y124.242 E9.6656
G1 X147.799 Y124.84 E9.68559
G1 X147.856 Y125.66 E9.71293
G1 X148.073 Y128.247 E9.79927
G1 X148.358 Y130.782 E9.88412
G1 X148.766 Y133.621 E9.97951
G1 X148.848 Y134.235 E10.00012
G1 X148.941 Y135.559 E10.04426
G1 X148.945 Y136.097 E10.06216
G1 X148.912 Y137.017 E10.09277
G1 X148.849 Y137.599 E10.11225
G1 X148.776 Y138.138 E10.13034
G1 X148.613 Y139.044 E10.16095
G1 X148.47 Y139.606 E10.18024
G1 X148.322 Y140.128 E10.19829
G1 X148.033 Y141.002 E10.2289
G1 X147.817 Y141.527 E10.24779
G1 X147.601 Y142.015 E10.26554
G1 X147.192 Y142.84 E10.29616
G1 X146.93 Y143.29 E10.31348
G1 X146.658 Y143.731 E10.33072
G1 X146.141 Y144.492 E10.36131
G1 X145.786 Y144.943 E10.3804
G1 X145.401 Y145.406 E10.40043
G1 X144.783 Y146.088 E10.43104
G1 X144.257 Y146.584 E10.45509
G1 X143.88 Y146.916 E10.4718
G1 X143.163 Y147.494 E10.50243
G1 X142.781 Y147.762 E10.51795
G1 X142.34 Y148.058 E10.53561
G1 X141.554 Y148.538 E10.56625
G1 X141.084 Y148.782 E10.58386
G1 X140.615 Y149.011 E10.60122
G1 X139.514 Y149.474 E10.64094
G1 X138.884 Y149.688 E10.66307
G1 X138.567 Y149.786 E10.67411
G1 X137.258 Y150.101 E10.71889
G1 X136.748 Y150.19 E10.73611
G1 X135.559 Y150.329 E10.77593
G1 X134.89 Y150.36 E10.7982
G1 X134.569 Y150.366 E10.80888
G1 X133.42 Y150.325 E10.84712
G1 X132.896 Y150.274 E10.86463
G1 X131.67 Y150.128 E10.90569
G1 X130.847 Y150.019 E10.93331
G1 X128.345 Y149.754 E11.01699
G1 X125.821 Y149.559 E11.10119
G1 X124.171 Y149.471 E11.15614
G1 X121.614 Y149.393 E11.24123
G1 X119.068 Y149.386 E11.32591
G1 X116.558 Y149.451 E11.40942
G1 X114.037 Y149.588 E11.49339
G1 X111.527 Y149.794 E11.57716
G1 X109.014 Y150.074 E11.66126
G1 X105.806 Y150.533 E11.76904
G1 X103.503 Y150.904 E11.84663
G1 X102.182 Y151.033 E11.89077
G1 X101.658 Y151.051 E11.90821
G1 X100.314 Y151.012 E11.95293
G1 X99.754 Y150.96 E11.97164
G1 X98.624 Y150.793 E12.00963
G1 X97.784 Y150.609 E12.03823
G1 X97.456 Y150.525 E12.04949
G1 X96.581 Y150.26 E12.0799
G1 X96.073 Y150.082 E12.09781
G1 X95.02 Y149.648 E12.13569
G1 X94.556 Y149.427 E12.15278
G1 X93.816 Y149.038 E12.18059
G1 X93.511 Y148.862 E12.1923
G1 X92.751 Y148.38 E12.22223
G1 X92.224 Y148.013 E12.24359
G1 X91.412 Y147.387 E12.27769
G1 X90.902 Y146.953 E12.29997
G1 X89.921 Y146.002 E12.34541
G1 X89.569 Y145.614 E12.36283
G1 X88.845 Y144.724 E12.40099
G1 X88.603 Y144.391 E12.41468
G1 X87.971 Y143.412 E12.45344
G1 X87.692 Y142.923 E12.47217
G1 X87.271 Y142.104 E12.50279
G1 X86.983 Y141.415 E12.52763
G1 X86.824 Y140.994 E12.5426
G1 X86.536 Y140.12 E12.57321
G1 X86.345 Y139.322 E12.6005
G1 X86.277 Y138.981 E12.61206
G1 X86.136 Y138.071 E12.64269
G1 X86.078 Y137.253 E12.66997
G1 X86.063 Y136.793 E12.68527
G1 X86.073 Y135.873 E12.71587
G1 X86.165 Y134.942 E12.74699
G1 X86.244 Y134.393 E12.76544
G1 X86.574 Y131.842 E12.85099
G1 X86.917 Y128.249 E12.97104
G1 X86.986 Y127.661 E12.99073
G1 X87.076 Y127.086 E13.01009
G1 X87.592 Y124.061 E13.11215
G1 X87.939 Y121.572 E13.19574
G1 X88.219 Y119.042 E13.2804
G1 X88.332 Y117.735 E13.32403
G1 X88.374 Y117.326 E13.33771
G1 X88.508 Y116.415 E13.36833
G1 X88.687 Y115.641 E13.39476
G1 X89.31 Y113.338 E13.47411
G1 X89.675 Y112.231 E13.51288
G1 X89.847 Y111.793 E13.52853
G1 X90.221 Y110.952 E13.55914
G1 X90.666 Y110.146 E13.58976
G1 X91.179 Y109.382 E13.62037
G1 X91.567 Y108.887 E13.64129
G1 X91.835 Y108.565 E13.65522
G1 X92.249 Y108.097 E13.67601
G1 X92.782 Y107.528 E13.70194
G1 X94.611 Y105.524 E13.79218
G1 X96.235 Y103.64 E13.87491
G1 X97.813 Y101.701 E13.95805
G1 X99.382 Y99.659 E14.04371
G1 X100.88 Y97.591 E14.12864
G1 X102.14 Y95.749 E14.20286
G1 X102.882 Y94.634 E14.24741
G1 X103.291 Y94.063 E14.27077
G1 X103.608 Y93.649 E14.28811
G1 X104.199 Y92.943 E14.31874
G0 F6000 X104.506 Y93.2
G1 F1200 X104.881 Y92.811 E14.33671
G1 X105.3 Y92.4 E14.35623
G1 X105.972 Y91.797 E14.38626
G1 X106.385 Y91.476 E14.40366
G1 X109.314 Y89.314 E14.52474
G1 X110.635 Y88.312 E14.57989
G1 X111.33 Y87.811 E14.60838
G1 X111.707 Y87.555 E14.62354
G1 X112.405 Y87.109 E14.65109
G1 X113.155 Y86.666 E14.68006
G1 X113.706 Y86.363 E14.70098
G1 X114.239 Y86.09 E14.72089
G1 X114.886 Y85.791 E14.7446
G1 X115.515 Y85.521 E14.76737
G1 X116.244 Y85.241 E14.79334
G1 X116.622 Y85.112 E14.80662
G1 X117.422 Y84.875 E14.83437
G1 X118.009 Y84.727 E14.85451
G1 X118.873 Y84.548 E14.88386
G1 X119.188 Y84.497 E14.89447
G1 X120.151 Y84.383 E14.92672
G1 X121.053 Y84.348 E14.95675
G1 X121.449 Y84.348 E14.96992
G1 X122.796 Y84.437 E15.01482
G1 X123.674 Y84.554 E15.04428
G1 X126.219 Y84.87 E15.12957
G1 X127.245 Y84.964 E15.16384
G1 X127.462 Y84.994 E15.17113
G1 X128.655 Y85.116 E15.21101
G1 X129.87 Y85.316 E15.25197
G1 X130.28 Y85.409 E15.26595
G1 X131.151 Y85.647 E15.29598
G1 X131.754 Y85.863 E15.31729
G1 X132.207 Y86.041 E15.33348
G1 X133.032 Y86.408 E15.36351
G1 X133.822 Y86.846 E15.39355
G1 X134.68 Y87.437 E15.4282
G1 X134.975 Y87.663 E15.44056
G1 X135.667 Y88.243 E15.47059
G1 X136.305 Y88.883 E15.50065
G1 X136.737 Y89.388 E15.52276
G1 X136.965 Y89.673 E15.53489
G1 X137.425 Y90.295 E15.56062
G1 X139.803 Y93.779 E15.70092
G1 X140.189 Y94.39 E15.72496
G1 X140.469 Y94.87 E15.74344
G1 X140.938 Y95.775 E15.77734
G1 X141.157 Y96.255 E15.79489
G1 X141.591 Y97.356 E15.83425
G1 X141.881 Y98.362 E15.86908
G1 X142.054 Y99.178 E15.89682
G1 X142.102 Y99.452 E15.90607
G1 X142.199 Y100.147 E15.92941
G1 X142.283 Y100.951 E15.9563
G1 X142.579 Y103.548 E16.04323
G1 X142.935 Y106.051 E16.12732
G1 X143.366 Y108.567 E16.21222
G1 X143.86 Y111.024 E16.29558
G1 X144.433 Y113.519 E16.38072
G1 X145.078 Y115.996 E16.46586
G1 X145.79 Y118.445 E16.55068
G1 X146.265 Y119.952 E16.60324
G1 X146.739 Y121.412 E16.65429
G1 X146.916 Y122.019 E16.67532
G1 X146.985 Y122.287 E16.68453
G1 X147.123 Y122.902 E16.70549
G1 X147.19 Y123.25 E16.71728
G1 X147.292 Y123.891 E16.73887
G1 X147.343 Y124.292 E16.75231
G1 X147.4 Y124.868 E16.77156
G1 X147.459 Y125.718 E16.7999
G1 X147.674 Y128.287 E16.88564
G1 X147.959 Y130.818 E16.97036
G1 X148.369 Y133.674 E17.06632
G1 X148.451 Y134.288 E17.08693
G1 X148.541 Y135.562 E17.1294
G1 X148.545 Y136.1 E17.1473
G1 X148.511 Y137.003 E17.17735
G1 X148.453 Y137.545 E17.19548
G1 X148.38 Y138.084 E17.21358
G1 X148.219 Y138.973 E17.24362
G1 X148.085 Y139.497 E17.26161
G1 X147.937 Y140.019 E17.27966
G1 X147.653 Y140.876 E17.30969
G1 X147.451 Y141.365 E17.32729
G1 X147.235 Y141.853 E17.34503
G1 X146.833 Y142.662 E17.37508
G1 X146.59 Y143.08 E17.39116
G1 X146.318 Y143.521 E17.4084
G1 X145.81 Y144.267 E17.43841
G1 X145.479 Y144.688 E17.45623
G1 X145.094 Y145.151 E17.47625
G1 X144.486 Y145.819 E17.5063
G1 X143.992 Y146.284 E17.52886
G1 X143.615 Y146.616 E17.54557
G1 X142.559 Y147.43 E17.58992
G1 X142.118 Y147.726 E17.60758
G1 X141.346 Y148.196 E17.63764
G1 X140.908 Y148.423 E17.65405
G1 X140.439 Y148.652 E17.67141
G1 X139.38 Y149.097 E17.70962
G1 X138.766 Y149.306 E17.73119
G1 X138.449 Y149.404 E17.74222
G1 X137.189 Y149.707 E17.78533
G1 X136.679 Y149.796 E17.80255
G1 X135.535 Y149.93 E17.84086
G1 X134.883 Y149.96 E17.86256
G1 X134.562 Y149.966 E17.87324
G1 X133.456 Y149.927 E17.91005
G1 X132.943 Y149.876 E17.9272
G1 X131.567 Y149.712 E17.97329
G1 X130.906 Y149.623 E17.99547
G1 X128.381 Y149.357 E18.07992
G1 X125.833 Y149.16 E18.16492
G1 X124.16 Y149.071 E18.22064
G1 X121.627 Y148.993 E18.30493
G1 X119.094 Y148.986 E18.38918
G1 X116.526 Y149.053 E18.47462
G1 X114.018 Y149.189 E18.55816
G1 X111.452 Y149.4 E18.64379
G1 X108.975 Y149.676 E18.72668
G1 X105.742 Y150.138 E18.83531
G1 X103.439 Y150.509 E18.91289
