;FLAVOR:Marlin
;TIME:1617
;Filament used: 0.903304m
;Layer height: 0.2
;MINX:86.216
;MINY:83.547
;MINZ:0.2
;MAXX:148.784
;MAXY:151.45
;MAXZ:4
;Generated with Cura_SteamEngine 5.2.1
M140 S50
M105
M190 S50
M104 S200
M105
M109 S200
M82 ;absolute extrusion mode
; Ender 3 Custom Start G-code
G92 E0 ; Reset Extruder
G28 ; Home all axes
G1 Z2.0 F3000 ; Move Z Axis up little to prevent scratching of Heat Bed
G1 X0.1 Y20 Z0.3 F5000.0 ; Move to start position
G1 X0.1 Y200.0 Z0.3 F1500.0 E15 ; Draw the first line
G1 X0.4 Y200.0 Z0.3 F5000.0 ; Move to side a little
G1 X0.4 Y20 Z0.3 F1500.0 E30 ; Draw the second line
G92 E0 ; Reset Extruder
G1 Z2.0 F3000 ; Move Z Axis up little to prevent scratching of Heat Bed
G1 X5 Y20 Z0.3 F5000.0 ; Move over to prevent blob squish
G92 E0
G92 E0
G1 F2700 E-5
;LAYER_COUNT:20
;LAYER:0
M107
G0 F6000 X104.642 Y92.457 Z0.2
;TYPE:SKIRT
G1 F2700 E0
G1 F1200 X105.577 Y91.564 E0.043
G1 X105.965 Y91.232 E0.05999
G1 X106.622 Y90.712 E0.08786
G1 X108.89 Y89.052 E0.18134
G1 X110.721 Y87.659 E0.25786
G1 X111.114 Y87.373 E0.27402
G1 X111.766 Y86.928 E0.30028
G1 X112.415 Y86.508 E0.32599
G1 X112.862 Y86.234 E0.34343
G1 X113.402 Y85.92 E0.3642
G1 X114.121 Y85.529 E0.39142
G1 X114.663 Y85.262 E0.41152
G1 X115.141 Y85.042 E0.42902
G1 X115.788 Y84.768 E0.45239
G1 X116.227 Y84.599 E0.46804
G1 X117.01 Y84.331 E0.49556
G1 X117.718 Y84.118 E0.52015
G1 X118.836 Y83.84 E0.55847
G1 X119.859 Y83.678 E0.59292
G1 X120.415 Y83.614 E0.61153
G1 X121.351 Y83.547 E0.64275
G1 X122.213 Y83.55 E0.67142
G1 X123.435 Y83.639 E0.71217
G1 X126.602 Y84.048 E0.81838
G1 X127.672 Y84.149 E0.85412
G1 X129.206 Y84.313 E0.90544
G1 X129.712 Y84.378 E0.9224
G1 X130.122 Y84.44 E0.9362
G1 X131.042 Y84.619 E0.96737
G1 X132.281 Y84.995 E1.01043
G1 X132.726 Y85.159 E1.02621
G1 X133.591 Y85.52 E1.05738
G1 X134.423 Y85.954 E1.08859
G1 X135.116 Y86.39 E1.11583
G1 X135.499 Y86.651 E1.13124
G1 X136.251 Y87.212 E1.16245
G1 X136.953 Y87.834 E1.19364
G1 X137.598 Y88.515 E1.22484
G1 X137.902 Y88.879 E1.24061
G1 X138.171 Y89.216 E1.25495
G1 X138.634 Y89.839 E1.28077
G1 X139.077 Y90.484 E1.30679
G1 X139.959 Y91.804 E1.3596
G1 X140.709 Y92.872 E1.403
G1 X141.126 Y93.489 E1.42777
G1 X141.517 Y94.117 E1.45238
G1 X141.73 Y94.486 E1.46655
G1 X142.109 Y95.203 E1.49352
G1 X142.235 Y95.464 E1.50316
G1 X142.591 Y96.284 E1.53289
G1 X142.747 Y96.688 E1.5473
G1 X143.151 Y97.96 E1.59169
G1 X143.235 Y98.293 E1.60311
G1 X143.447 Y99.347 E1.63887
G1 X143.565 Y100.203 E1.66761
G1 X143.702 Y101.499 E1.71095
G1 X144.007 Y104.033 E1.79584
G1 X144.382 Y106.544 E1.88029
G1 X144.824 Y109.03 E1.96427
G1 X145.325 Y111.444 E2.04627
G1 X145.918 Y113.942 E2.13166
G1 X146.569 Y116.378 E2.21553
G1 X147.283 Y118.777 E2.29878
G1 X148.011 Y121.012 E2.37696
G1 X148.174 Y121.562 E2.39604
G1 X148.28 Y121.956 E2.40961
G1 X148.463 Y122.751 E2.43674
G1 X148.539 Y123.149 E2.45022
G1 X148.656 Y123.9 E2.4755
G1 X148.699 Y124.258 E2.48749
G1 X148.776 Y125.426 E2.52642
G1 X148.784 Y126.037 E2.54674
G1 X148.768 Y126.796 E2.57199
G1 X148.746 Y127.189 E2.58509
G1 X148.68 Y127.925 E2.60966
G1 X148.632 Y128.313 E2.62267
G1 X148.494 Y129.156 E2.65108
G1 X148.402 Y129.608 E2.66642
G1 X148.134 Y130.656 E2.7024
G1 X147.882 Y131.473 E2.73084
G1 X147.695 Y132.027 E2.75028
G1 X147.595 Y132.299 E2.75992
G1 X147.332 Y132.95 E2.78327
G1 X147.035 Y133.622 E2.80771
G1 X146.813 Y134.094 E2.82506
G1 X146.196 Y135.314 E2.87053
G1 X144.35 Y138.698 E2.99874
G1 X143.854 Y139.543 E3.03133
G1 X143.174 Y140.643 E3.07434
G1 X142.68 Y141.396 E3.1043
G1 X142.397 Y141.799 E3.12067
G1 X141.909 Y142.451 E3.14776
G1 X141.318 Y143.195 E3.17936
G1 X140.815 Y143.785 E3.20515
G1 X140.333 Y144.311 E3.22888
G1 X139.816 Y144.838 E3.25343
G1 X139.49 Y145.149 E3.26842
G1 X138.941 Y145.639 E3.29289
G1 X138.544 Y145.97 E3.31009
G1 X138.041 Y146.365 E3.33136
G1 X137.68 Y146.632 E3.34629
G1 X136.988 Y147.104 E3.37415
G1 X136.601 Y147.347 E3.38935
G1 X136.059 Y147.666 E3.41027
G1 X135.685 Y147.872 E3.42447
G1 X134.988 Y148.225 E3.45046
G1 X134.585 Y148.411 E3.46522
G1 X133.976 Y148.67 E3.48723
G1 X133.556 Y148.834 E3.50223
G1 X132.854 Y149.081 E3.52698
G1 X132.52 Y149.186 E3.53862
G1 X131.839 Y149.376 E3.56214
G1 X131.288 Y149.511 E3.58101
G1 X130.623 Y149.652 E3.60362
G1 X130.307 Y149.709 E3.6143
G1 X129.662 Y149.806 E3.63599
G1 X129.211 Y149.86 E3.6511
G1 X128.351 Y149.934 E3.67981
G1 X127.645 Y149.965 E3.70331
G1 X127.079 Y149.969 E3.72214
G1 X126.217 Y149.95 E3.75081
G1 X125.327 Y149.913 E3.78044
G1 X124.002 Y149.845 E3.82457
G1 X121.473 Y149.786 E3.90871
G1 X118.956 Y149.798 E3.99242
G1 X116.426 Y149.883 E4.07662
G1 X113.931 Y150.037 E4.15976
G1 X111.413 Y150.263 E4.24385
G1 X108.951 Y150.556 E4.32631
G1 X105.661 Y151.053 E4.43698
G1 X104.463 Y151.256 E4.47739
G1 X103.78 Y151.352 E4.50033
G1 X102.791 Y151.431 E4.53333
G1 X102.244 Y151.45 E4.55154
G1 X101.306 Y151.443 E4.58273
G1 X100.833 Y151.409 E4.59851
G1 X100.237 Y151.353 E4.61842
G1 X99.183 Y151.202 E4.65383
G1 X98.489 Y151.057 E4.67741
G1 X98.179 Y150.983 E4.68801
G1 X97.203 Y150.702 E4.72179
G1 X96.598 Y150.497 E4.74304
G1 X95.362 Y149.993 E4.78743
G1 X94.921 Y149.781 E4.80371
G1 X94.211 Y149.407 E4.8304
G1 X93.873 Y149.213 E4.84336
G1 X93.07 Y148.705 E4.87497
G1 X92.417 Y148.251 E4.90142
G1 X91.67 Y147.683 E4.93263
G1 X91.273 Y147.336 E4.95017
G1 X90.852 Y146.951 E4.96914
G1 X90.014 Y146.097 E5.00894
G1 X89.701 Y145.741 E5.0247
G1 X89.056 Y144.935 E5.05904
G1 X88.824 Y144.615 E5.07218
G1 X88.191 Y143.635 E5.11099
G1 X87.92 Y143.163 E5.12909
G1 X87.488 Y142.331 E5.16027
G1 X87.165 Y141.563 E5.18798
G1 X86.994 Y141.109 E5.20412
G1 X86.701 Y140.218 E5.23531
G1 X86.5 Y139.383 E5.26388
G1 X86.438 Y139.072 E5.27443
G1 X86.294 Y138.145 E5.30563
G1 X86.232 Y137.29 E5.33414
G1 X86.216 Y136.813 E5.35001
G1 X86.225 Y135.875 E5.38121
G1 X86.321 Y134.886 E5.41426
G1 X86.403 Y134.31 E5.43361
G1 X86.734 Y131.755 E5.5193
G1 X87.091 Y128.03 E5.64376
G1 X87.203 Y127.198 E5.67169
G1 X87.687 Y124.406 E5.76593
G1 X88.045 Y121.926 E5.84927
G1 X88.332 Y119.439 E5.93254
G1 X88.517 Y117.408 E6.00037
G1 X88.642 Y116.479 E6.03155
G1 X88.852 Y115.537 E6.06365
G1 X89.472 Y113.241 E6.14275
G1 X89.86 Y112.071 E6.18375
G1 X90.038 Y111.62 E6.19987
G1 X90.419 Y110.763 E6.23107
G1 X90.872 Y109.941 E6.26228
G1 X91.325 Y109.247 E6.28985
G1 X91.953 Y108.425 E6.32426
G1 X92.351 Y107.974 E6.34426
G1 X93.553 Y106.693 E6.40269
G1 X95.243 Y104.821 E6.48657
G1 X96.889 Y102.89 E6.57096
G1 X98.443 Y100.96 E6.65338
G1 X99.97 Y98.95 E6.73733
G1 X101.454 Y96.876 E6.82215
G1 X103.307 Y94.124 E6.9325
G1 X103.87 Y93.352 E6.96428
G1 X104.642 Y92.457 E7.00359
G0 F6000 X104.933 Y92.731
G1 F1200 X105.837 Y91.868 E7.04516
G1 X106.225 Y91.536 E7.06215
G1 X106.858 Y91.035 E7.089
G1 X109.112 Y89.386 E7.18188
G1 X110.963 Y87.977 E7.25926
G1 X111.342 Y87.702 E7.27483
G1 X111.983 Y87.264 E7.30065
G1 X112.632 Y86.844 E7.32636
G1 X113.063 Y86.58 E7.34317
G1 X113.603 Y86.266 E7.36395
G1 X114.308 Y85.883 E7.39064
G1 X114.83 Y85.625 E7.41
G1 X115.308 Y85.405 E7.4275
G1 X115.932 Y85.142 E7.45003
G1 X116.371 Y84.973 E7.46567
G1 X117.125 Y84.714 E7.49219
G1 X117.833 Y84.501 E7.51678
G1 X118.915 Y84.231 E7.55387
G1 X119.905 Y84.076 E7.5872
G1 X120.461 Y84.012 E7.60581
G1 X121.379 Y83.946 E7.63642
G1 X122.207 Y83.95 E7.66396
G1 X123.384 Y84.035 E7.70321
G1 X126.571 Y84.446 E7.81009
G1 X127.635 Y84.547 E7.84564
G1 X129.165 Y84.711 E7.89682
G1 X129.652 Y84.773 E7.91315
G1 X130.062 Y84.835 E7.92694
G1 X130.965 Y85.012 E7.95754
G1 X132.143 Y85.37 E7.99849
G1 X132.588 Y85.534 E8.01427
G1 X133.437 Y85.89 E8.04489
G1 X134.252 Y86.317 E8.07549
G1 X134.891 Y86.721 E8.10063
G1 X135.274 Y86.982 E8.11605
G1 X136.012 Y87.533 E8.14668
G1 X136.699 Y88.145 E8.17728
G1 X137.589 Y89.128 E8.22139
G1 X137.858 Y89.465 E8.23573
G1 X138.304 Y90.066 E8.26062
G1 X138.744 Y90.707 E8.28648
G1 X139.624 Y92.024 E8.33916
G1 X140.511 Y93.29 E8.39058
G1 X140.794 Y93.712 E8.40748
G1 X141.17 Y94.317 E8.43117
G1 X141.383 Y94.686 E8.44534
G1 X141.749 Y95.377 E8.47135
G1 X141.875 Y95.638 E8.48099
G1 X142.217 Y96.428 E8.50962
G1 X142.373 Y96.832 E8.52402
G1 X142.763 Y98.057 E8.56678
G1 X142.847 Y98.39 E8.5782
G1 X143.051 Y99.407 E8.6127
G1 X143.167 Y100.245 E8.64084
G1 X143.302 Y101.522 E8.68355
G1 X143.613 Y104.104 E8.77005
G1 X143.986 Y106.602 E8.85405
G1 X144.433 Y109.116 E8.93898
G1 X144.937 Y111.546 E9.02152
G1 X145.527 Y114.033 E9.10654
G1 X146.173 Y116.448 E9.18969
G1 X146.902 Y118.9 E9.27477
G1 X147.631 Y121.136 E9.35299
G1 X147.788 Y121.666 E9.37137
G1 X147.894 Y122.06 E9.38495
G1 X148.07 Y122.826 E9.41109
G1 X148.146 Y123.224 E9.42456
G1 X148.258 Y123.948 E9.44893
G1 X148.301 Y124.306 E9.46092
G1 X148.376 Y125.431 E9.49842
G1 X148.384 Y126.042 E9.51875
G1 X148.368 Y126.773 E9.54307
G1 X148.346 Y127.166 E9.55616
G1 X148.283 Y127.875 E9.57983
G1 X148.235 Y128.263 E9.59284
G1 X148.102 Y129.076 E9.62024
G1 X148.01 Y129.528 E9.63558
G1 X147.752 Y130.538 E9.67025
G1 X147.5 Y131.355 E9.69869
G1 X147.32 Y131.889 E9.71743
G1 X147.22 Y132.161 E9.72707
G1 X146.966 Y132.788 E9.74957
G1 X146.669 Y133.46 E9.774
G1 X146.455 Y133.915 E9.79073
G1 X145.844 Y135.123 E9.83575
G1 X144.151 Y138.235 E9.95358
G1 X143.661 Y139.087 E9.98627
G1 X142.833 Y140.433 E10.03883
G1 X142.347 Y141.174 E10.06831
G1 X142.075 Y141.562 E10.08407
G1 X141.596 Y142.202 E10.11066
G1 X141.005 Y142.946 E10.14226
G1 X140.52 Y143.514 E10.1671
G1 X140.038 Y144.04 E10.19083
G1 X139.54 Y144.549 E10.21451
G1 X139.214 Y144.86 E10.2295
G1 X138.685 Y145.331 E10.25306
G1 X138.288 Y145.662 E10.27025
G1 X137.803 Y146.043 E10.29076
G1 X137.442 Y146.31 E10.3057
G1 X136.776 Y146.765 E10.33252
G1 X136.389 Y147.008 E10.34772
G1 X135.866 Y147.316 E10.36791
G1 X135.492 Y147.522 E10.38211
G1 X134.82 Y147.861 E10.40714
G1 X134.417 Y148.047 E10.42191
G1 X133.831 Y148.297 E10.4431
G1 X133.411 Y148.461 E10.45809
G1 X132.734 Y148.699 E10.48196
G1 X132.4 Y148.804 E10.49361
G1 X131.743 Y148.987 E10.51629
G1 X131.192 Y149.122 E10.53516
G1 X130.552 Y149.259 E10.55693
G1 X130.236 Y149.316 E10.56761
G1 X129.614 Y149.409 E10.58853
G1 X129.163 Y149.463 E10.60363
G1 X128.322 Y149.535 E10.63171
G1 X127.632 Y149.565 E10.65468
G1 X127.086 Y149.569 E10.67284
G1 X126.458 Y149.557 E10.69373
G1 X125.348 Y149.514 E10.73068
G1 X123.997 Y149.444 E10.77567
G1 X121.481 Y149.386 E10.85938
G1 X118.941 Y149.398 E10.94386
G1 X116.422 Y149.483 E11.02769
G1 X113.875 Y149.64 E11.11256
G1 X111.398 Y149.862 E11.19528
G1 X108.874 Y150.163 E11.27982
G1 X105.644 Y150.65 E11.38847
G1 X104.396 Y150.862 E11.43057
G1 X103.73 Y150.955 E11.45293
G1 X102.777 Y151.032 E11.48473
G1 X102.23 Y151.051 E11.50294
G1 X100.87 Y151.011 E11.54819
G1 X100.274 Y150.955 E11.5681
G1 X99.259 Y150.809 E11.60221
G1 X98.582 Y150.668 E11.62521
G1 X98.272 Y150.594 E11.63581
G1 X97.331 Y150.323 E11.66838
G1 X96.726 Y150.118 E11.68963
G1 X95.535 Y149.632 E11.73241
G1 X95.094 Y149.42 E11.74868
G1 X94.41 Y149.06 E11.77439
G1 X94.072 Y148.866 E11.78735
G1 X93.298 Y148.376 E11.81782
G1 X92.645 Y147.922 E11.84428
G1 X91.913 Y147.364 E11.87489
G1 X91.543 Y147.041 E11.89122
G1 X91.122 Y146.656 E11.9102
G1 X90.314 Y145.833 E11.94856
G1 X90.001 Y145.477 E11.96433
G1 X89.38 Y144.7 E11.99741
G1 X89.148 Y144.38 E12.01056
G1 X88.537 Y143.436 E12.04796
G1 X88.266 Y142.964 E12.06606
G1 X87.843 Y142.146 E12.09669
G1 X87.539 Y141.422 E12.1228
G1 X87.368 Y140.968 E12.13894
G1 X87.082 Y140.093 E12.16956
G1 X86.893 Y139.304 E12.19654
G1 X86.831 Y138.993 E12.20709
G1 X86.69 Y138.084 E12.23768
G1 X86.632 Y137.276 E12.26463
G1 X86.616 Y136.799 E12.2805
G1 X86.625 Y135.879 E12.3111
G1 X86.717 Y134.943 E12.34238
G1 X86.803 Y134.341 E12.36261
G1 X87.13 Y131.817 E12.44726
G1 X87.489 Y128.068 E12.57252
G1 X87.597 Y127.267 E12.59941
G1 X88.083 Y124.466 E12.69396
G1 X88.44 Y121.992 E12.7771
G1 X88.734 Y119.44 E12.86254
G1 X88.916 Y117.444 E12.9292
G1 X89.039 Y116.532 E12.95981
G1 X89.239 Y115.642 E12.99015
G1 X89.859 Y113.346 E13.06925
G1 X90.232 Y112.218 E13.10876
G1 X90.41 Y111.767 E13.12489
G1 X90.785 Y110.926 E13.15552
G1 X91.231 Y110.12 E13.18616
G1 X91.712 Y109.4 E13.21496
G1 X92.271 Y108.669 E13.24556
G1 X92.644 Y108.247 E13.2643
G1 X93.867 Y106.942 E13.32378
G1 X95.528 Y105.102 E13.40623
G1 X97.203 Y103.137 E13.49211
G1 X98.757 Y101.207 E13.57452
G1 X100.298 Y99.179 E13.65923
G1 X101.767 Y97.127 E13.74317
G1 X103.638 Y94.347 E13.85462
G1 X104.183 Y93.6 E13.88538
G1 X104.933 Y92.731 E13.92356
G0 F6000 X105.225 Y93.004
G1 F1200 X106.098 Y92.172 E13.96367
G1 X106.486 Y91.84 E13.98065
G1 X107.094 Y91.358 E14.00646
G1 X109.367 Y89.695 E14.10013
G1 X111.205 Y88.296 E14.17696
G1 X111.57 Y88.031 E14.19196
G1 X112.2 Y87.6 E14.21735
G1 X112.849 Y87.18 E14.24306
G1 X113.264 Y86.925 E14.25926
G1 X113.804 Y86.611 E14.28004
G1 X114.495 Y86.237 E14.30617
G1 X114.997 Y85.988 E14.32481
G1 X115.475 Y85.768 E14.34231
G1 X116.076 Y85.515 E14.364
G1 X116.515 Y85.346 E14.37964
G1 X117.24 Y85.097 E14.40514
G1 X117.948 Y84.884 E14.42973
G1 X118.994 Y84.623 E14.46559
G1 X119.951 Y84.473 E14.49781
G1 X120.507 Y84.409 E14.51642
G1 X121.846 Y84.343 E14.56101
G1 X122.2 Y84.349 E14.57279
G1 X123.333 Y84.432 E14.61057
G1 X126.513 Y84.843 E14.71722
G1 X127.597 Y84.945 E14.75343
G1 X129.123 Y85.109 E14.80448
G1 X129.592 Y85.169 E14.8202
G1 X130.002 Y85.231 E14.834
G1 X130.888 Y85.405 E14.86403
G1 X132.004 Y85.745 E14.90283
G1 X132.449 Y85.909 E14.9186
G1 X133.282 Y86.259 E14.94866
G1 X134.08 Y86.681 E14.97868
G1 X134.666 Y87.051 E15.00173
G1 X135.049 Y87.312 E15.01715
G1 X135.772 Y87.853 E15.04718
G1 X136.444 Y88.456 E15.07721
G1 X137.277 Y89.378 E15.11854
G1 X137.546 Y89.715 E15.13288
G1 X137.975 Y90.293 E15.15682
G1 X138.331 Y90.81 E15.1777
G1 X139.27 Y92.215 E15.2339
G1 X140.054 Y93.331 E15.27927
G1 X140.461 Y93.935 E15.30349
G1 X140.824 Y94.517 E15.32631
G1 X141.037 Y94.886 E15.34048
G1 X141.389 Y95.551 E15.3655
G1 X141.515 Y95.812 E15.37514
G1 X141.844 Y96.572 E15.40269
G1 X142 Y96.976 E15.41709
G1 X142.375 Y98.155 E15.45824
G1 X142.459 Y98.488 E15.46966
G1 X142.656 Y99.466 E15.50284
G1 X142.769 Y100.288 E15.53044
G1 X142.901 Y101.537 E15.57221
G1 X143.219 Y104.174 E15.66056
G1 X143.589 Y106.659 E15.74412
G1 X144.035 Y109.162 E15.82868
G1 X144.55 Y111.648 E15.91312
G1 X145.138 Y114.123 E15.99773
G1 X145.796 Y116.586 E16.08252
G1 X146.521 Y119.023 E16.16709
G1 X147.25 Y121.26 E16.24534
G1 X147.402 Y121.77 E16.26304
G1 X147.508 Y122.164 E16.27661
G1 X147.677 Y122.901 E16.30176
G1 X147.753 Y123.299 E16.31524
G1 X147.861 Y123.996 E16.3387
G1 X147.904 Y124.354 E16.35069
G1 X147.976 Y125.436 E16.38676
G1 X147.984 Y126.047 E16.40708
G1 X147.969 Y126.751 E16.4305
G1 X147.947 Y127.144 E16.44359
G1 X147.886 Y127.826 E16.46637
G1 X147.838 Y128.214 E16.47937
G1 X147.71 Y128.996 E16.50573
G1 X147.618 Y129.448 E16.52107
G1 X147.37 Y130.42 E16.55443
G1 X147.118 Y131.237 E16.58287
G1 X146.945 Y131.751 E16.60091
G1 X146.845 Y132.023 E16.61055
G1 X146.6 Y132.626 E16.63219
G1 X146.303 Y133.298 E16.65663
G1 X146.097 Y133.737 E16.67276
G1 X145.493 Y134.931 E16.71726
G1 X143.8 Y138.043 E16.8351
G1 X143.173 Y139.122 E16.8766
G1 X142.493 Y140.222 E16.91961
G1 X142.014 Y140.952 E16.94865
G1 X141.752 Y141.326 E16.96384
G1 X141.283 Y141.953 E16.98989
G1 X140.692 Y142.697 E17.02149
G1 X140.225 Y143.244 E17.04541
G1 X139.743 Y143.77 E17.06914
G1 X139.264 Y144.259 E17.09191
G1 X138.938 Y144.57 E17.10689
G1 X138.429 Y145.024 E17.12958
G1 X138.032 Y145.355 E17.14677
G1 X137.565 Y145.722 E17.16652
G1 X137.204 Y145.989 E17.18146
G1 X136.563 Y146.426 E17.20726
G1 X136.176 Y146.669 E17.22246
G1 X135.673 Y146.965 E17.24187
G1 X135.299 Y147.171 E17.25607
G1 X134.652 Y147.498 E17.28018
G1 X134.249 Y147.684 E17.29495
G1 X133.685 Y147.924 E17.31533
G1 X133.265 Y148.088 E17.33033
G1 X132.614 Y148.317 E17.35328
G1 X132.28 Y148.422 E17.36493
G1 X131.648 Y148.599 E17.38676
G1 X131.097 Y148.734 E17.40562
G1 X130.481 Y148.865 E17.42657
G1 X130.165 Y148.922 E17.43725
G1 X129.567 Y149.012 E17.45736
G1 X129.116 Y149.066 E17.47247
G1 X128.63 Y149.112 E17.48871
G1 X127.897 Y149.157 E17.51313
G1 X127.094 Y149.169 E17.53985
G1 X126.25 Y149.151 E17.56792
G1 X125.482 Y149.12 E17.59349
